tracker_LUT/LUT/D_O_1.C0427.cube
TITLE "Generated by Resolve"
LUT_3D_SIZE 9
0 0 0
0 0 0
0 0 0
0.0419013 0.0281224 0.0279698
0.786191 0 0
1 0 0
1 0 0
1 0 0
1 0 0
0 0 0
0 0 0
0.00250248 0.00250248 0.00250248
0.135225 0.0448157 0.0220645
0.83267 0.00282292 0
0.992401 0.0440986 0
1 0.0453498 0
1 0.0527047 0
1 0.0627298 0
0.0185092 0.0191348 0.018555
0.0299992 0.031632 0.0287938
0.0470893 0.0472572 0.033463
0.247807 0.0708629 0
0.770184 0.076463 0
0.976852 0.161105 0
1 0.165667 0
1 0.175723 0
1 0.187778 0
0 0.216724 0
0 0.218997 0
0.0131685 0.213413 0
0.225834 0.202167 0
0.687633 0.225238 0
0.933593 0.279606 0
1 0.29749 0
1 0.305715 0
1 0.315923 0
0 0.505684 0
0 0.487846 0
0 0.468437 0
0.105913 0.452949 0
0.575067 0.455772 0
0.878141 0.497627 0
0.985931 0.530388 0
1 0.540917 0
1 0.551812 0
0 0.783948 0
0 0.769909 0
0 0.750957 0
0.0717784 0.726619 0
0.430304 0.7617 0
0.810666 0.702525 0
0.939666 0.708186 0
1 0.715831 0
1 0.721569 0
0 0.98883 0
0 0.981308 0
0 0.966674 0
0.093492 0.941192 0
0.376699 0.934615 0
0.76643 0.936873 0
0.913359 0.868879 0
0.98146 0.84918 0
1 0.846754 0
0 1 0
0 1 0
0.00518807 1 0
0.127321 1 0
0.378347 1 0
0.724407 1 0
0.927398 0.995697 0
0.979278 0.968002 0
1 0.954986 0
0 1 0
0 1 0
0.00605783 1 0
0.126207 1 0
0.344152 1 0
0.683955 1 0
0.902266 1 0
0.976699 1 0
1 1 0
0 0 0
0 0 0
0 0 0
0.0463111 0.0295109 0.0320287
0.797192 0 0.00663767
1 0 0.000610361
1 0 0.00115969
1 0 0
1 0 7.62951e-05
0 0 0
0 0 0
0.00453193 0.00451667 0.00451667
0.145159 0.0437171 0.0415198
0.829129 0.00189212 0
0.991302 0.0417029 0
1 0.0431983 0
1 0.0513008 0
1 0.061387 0
0.0221103 0.0229801 0.0225071
0.0328679 0.0353246 0.0330816
0.0505837 0.0507973 0.0416724
0.256031 0.0682689 0.00404364
0.763592 0.0722362 0
0.976394 0.157916 0
1 0.16408 0
1 0.174578 0
1 0.186633 0
0 0.218097 0.00117494
0 0.217731 0
0.010956 0.210254 0
0.219608 0.198062 0
0.679576 0.218692 0
0.933486 0.273671 0
1 0.296208 0
1 0.305928 0
1 0.313985 0
0 0.499672 0
0 0.481865 0
0 0.462669 0
0.1037 0.445274 0
0.565286 0.44892 0
0.877104 0.491722 0
0.985687 0.527077 0
1 0.537728 0
1 0.548531 0
0 0.778988 0
0 0.764874 0
0 0.745251 0
0.0704356 0.719753 0
0.418723 0.754025 0
0.80647 0.695354 0
0.938384 0.703365 0
1 0.710384 0
1 0.715648 0
0 0.987762 0
0 0.978195 0
0 0.961013 0
0.0886244 0.934325 0
0.363546 0.927092 0
0.757336 0.928634 0
0.909804 0.860777 0
0.978424 0.840421 0
1 0.837766 0
0 1 0
0 1 0
0.00415045 1 0
0.124483 1 0
0.366995 1 0
0.713588 1 0
0.920653 0.991028 0
0.973007 0.958373 0
1 0.942443 0
0 1 0
0 1 0
0.00492866 1 0
0.122393 1 0
0.332372 1 0
0.669703 1 0
0.887709 1 0
0.970001 1 0
1 1 0
0 0 0
0 0 0
0 0 0
0.0758221 0.0353857 0.0475166
0.806867 0 0.0962997
1 0 0.0906539
1 0 0.0895094
1 0 0.0937362
1 0 0.10016
0 0 0
0.000274662 0.000274662 0.000274662
0.00686656 0.0068513 0.0068513
0.155016 0.0425574 0.0634928
0.823148 0.000915541 0.0536965
0.989654 0.038819 0.0696574
1 0.040589 0.0728618
1 0.0491188 0.0809186
1 0.0591592 0.0902266
0.0244755 0.0259403 0.025742
0.035111 0.0388647 0.0384222
0.0527352 0.0531472 0.0520638
0.260441 0.0661021 0.0476844
0.755947 0.0673075 0.027512
0.975418 0.154452 0.0545968
1 0.162509 0.0616007
1 0.172778 0.0715496
1 0.184985 0.0827497
0 0.216953 0.0411231
0 0.215061 0.0294652
0.00906386 0.206241 0.0186465
0.218967 0.188434 0.0040589
0.671138 0.212757 0.00233463
0.933043 0.266865 0.0149844
1 0.294606 0.0248875
1 0.304677 0.0347143
1 0.314626 0.0457313
0 0.49247 0
0 0.474708 0
0 0.455833 0
0.101289 0.436988 0
0.555154 0.441764 0
0.874495 0.484352 0
0.985306 0.52282 0
1 0.533211 0.000259403
1 0.544076 0.00688182
0 0.772931 0
0 0.758007 0
0 0.738186 0
0.0682994 0.711208 0
0.406119 0.744762 0
0.80119 0.687587 0
0.936797 0.697475 0
0.999817 0.704387 0
1 0.708736 0
0 0.9832 0.0198367
0 0.973693 0.0166629
0 0.953643 0.00852979
0.0829023 0.925978 0
0.347631 0.917403 0
0.746548 0.918547 0
0.905638 0.850797 0
0.97496 0.830747 0
1 0.828 0
0 1 0.0426184
0 1 0.0388342
0.00170901 1 0.029221
0.119951 1 0.0176852
0.353689 1 0.0016022
0.700938 0.998657 0
0.912047 0.984741 0
0.965133 0.946487 0
1 0.929381 0
0 1 0.0524758
0 1 0.0447395
0.002121 1 0.0307774
0.117296 1 0.016556
0.318898 1 0
0.652796 1 0
0.87042 1 0
0.962402 1 0
1 1 0
0.0319219 0.0386358 0.0679637
0.042649 0.0424048 0.085893
0.0513161 0.0405127 0.078645
0.150408 0.0382239 0.130388
0.868528 0 0.362417
1 0 0.342061
1 0 0.311131
1 0.000167849 0.302464
1 0 0.308522
0.0246586 0.0638285 0.132265
0.0437171 0.0647898 0.150866
0.0711833 0.0608377 0.148486
0.198093 0.0485542 0.182925
0.801862 0.0200809 0.263874
0.989471 0.0463264 0.245777
1 0.0442817 0.238102
1 0.0505379 0.239841
1 0.0630655 0.249165
0.0061799 0.104707 0.189624
0.0112306 0.105867 0.21088
0.0621195 0.101122 0.226459
0.229603 0.0828412 0.209812
0.733577 0.0946212 0.19469
0.972732 0.150637 0.196811
1 0.159686 0.201541
1 0.170031 0.210956
1 0.181186 0.222705
0 0.229496 0.205722
0 0.220462 0.196963
0.00205997 0.206821 0.184375
0.185672 0.186786 0.154925
0.644862 0.197894 0.124193
0.929015 0.24712 0.139956
1 0.290776 0.15172
1 0.302342 0.162219
1 0.314717 0.173465
0 0.500923 0.149126
0 0.478798 0.138582
0 0.455406 0.128435
0.0941176 0.423651 0.108431
0.529122 0.428489 0.0871443
0.867979 0.471626 0.0961929
0.983368 0.515816 0.106508
1 0.526375 0.116152
1 0.536843 0.125093
0 0.768505 0.108003
0 0.752224 0.104677
0 0.730846 0.100374
0.064744 0.700511 0.093843
0.384985 0.729702 0.0897993
0.791623 0.67599 0.0636912
0.933913 0.689128 0.0680247
0.998688 0.695903 0.0745861
1 0.699565 0.0799573
0 0.97792 0.1458
0 0.96614 0.138476
0 0.944396 0.125795
0.0755016 0.915206 0.109148
0.327474 0.904814 0.0907149
0.732769 0.906096 0.106233
0.900053 0.837598 0.0473945
0.970504 0.819455 0.0452125
1 0.81651 0.0466926
0 1 0.170275
0 1 0.165011
0 1 0.157321
0.113863 1 0.144076
0.335134 1 0.124102
0.684657 0.994522 0.113985
0.902159 0.977295 0.110674
0.956298 0.932738 0.0388037
0.999954 0.914458 0.0310674
0 1 0.178042
0 1 0.170443
0 1 0.159655
0.110613 1 0.143969
0.30309 1 0.123445
0.632166 1 0.104173
0.851133 1 0.0934768
0.953887 1 0.0875868
0.999786 0.998718 0.0789349
0 0.146395 0.918334
0.0411994 0.126131 0.916793
0.173022 0.101549 0.89424
0.336599 0.0524605 0.822385
0.829374 0.00852979 0.747143
1 0.0285649 0.766781
1 0.0337377 0.759365
1 0.0473487 0.762142
1 0.0632029 0.769314
0 0.218967 0.86186
0.00300603 0.196094 0.845396
0.114946 0.172122 0.818524
0.275135 0.122103 0.719448
0.727642 0.0727398 0.586069
1 0.131441 0.720516
1 0.135073 0.723186
1 0.144045 0.731685
1 0.156191 0.743664
0 0.288045 0.764218
0 0.266392 0.744289
0.0588083 0.245274 0.722942
0.213397 0.203326 0.616785
0.611841 0.158419 0.454292
0.975235 0.23061 0.609766
1 0.257816 0.656123
1 0.270573 0.670665
1 0.281743 0.681071
0 0.355261 0.619593
0 0.337148 0.599084
0.00244144 0.319036 0.577478
0.143343 0.29601 0.552087
0.50135 0.251438 0.389303
0.908125 0.321187 0.437293
1 0.355444 0.464866
1 0.366796 0.478798
1 0.380041 0.496483
0 0.482231 0.488975
0 0.467063 0.469902
0 0.450294 0.449012
0.0836957 0.440848 0.419135
0.420615 0.429831 0.352422
0.83772 0.45214 0.299275
0.980575 0.481743 0.282536
1 0.490776 0.288334
1 0.501045 0.297963
0 0.799329 0.506767
0 0.785977 0.48394
0 0.766705 0.45417
0.0691234 0.732799 0.397436
0.295476 0.686183 0.273823
0.755703 0.670939 0.222019
0.92932 0.682078 0.219532
0.99707 0.691554 0.224948
1 0.693706 0.228901
0 0.977722 0.489693
0 0.966293 0.465431
0 0.94551 0.42443
0.0721141 0.91632 0.366125
0.267613 0.87892 0.252033
0.684733 0.879698 0.246967
0.892836 0.823285 0.184375
0.964843 0.809705 0.180499
1 0.806668 0.180316
0 1 0.492149
0 1 0.4701
0 1 0.429526
0.0966506 1 0.378775
0.284642 0.996292 0.274006
0.639673 0.983047 0.255863
0.872343 0.966827 0.254139
0.946807 0.916838 0.164858
0.9991 0.897932 0.157534
0 1 0.472114
0 1 0.44213
0 1 0.394995
0.0930037 1 0.346395
0.272923 1 0.272328
0.593545 1 0.243915
0.820935 1 0.230106
0.943648 0.999634 0.226535
0.997528 0.990311 0.1991
0 0.165972 1
0.0479744 0.157092 1
0.187823 0.146075 1
0.363409 0.11635 1
0.809781 0.0823377 1
1 0.0732891 1
1 0.0801404 1
1 0.0944839 0.999954
1 0.111025 1
0 0.281361 1
0.010071 0.272725 1
0.136126 0.264027 1
0.310979 0.237781 0.997345
0.640299 0.200244 0.991974
1 0.177523 0.987961
1 0.180087 0.994949
1 0.190829 0.997192
1 0.202518 0.996048
0 0.401862 0.983612
0 0.393713 0.981765
0.0852979 0.383566 0.978469
0.252293 0.358709 0.96286
0.486915 0.311254 0.93875
0.962737 0.281773 0.924376
1 0.2934 0.932677
1 0.306294 0.948333
1 0.321416 0.964569
0 0.504982 0.921859
0 0.49163 0.916671
0.0219883 0.47686 0.909972
0.175402 0.450004 0.898268
0.374884 0.40322 0.837568
0.86714 0.37734 0.787976
1 0.411749 0.826978
1 0.422797 0.84004
1 0.434943 0.853712
0 0.590356 0.830182
0 0.576608 0.819608
0 0.560876 0.805692
0.100496 0.540261 0.786206
0.28719 0.521813 0.770611
0.795392 0.488334 0.667079
0.988067 0.548516 0.740887
1 0.562783 0.755749
1 0.571801 0.765576
0 0.726543 0.758434
0 0.714549 0.745357
0 0.697124 0.726223
0.0530404 0.675441 0.697414
0.227329 0.681315 0.670497
0.687587 0.688838 0.626078
0.929641 0.695811 0.59472
0.998093 0.691157 0.545495
1 0.691264 0.539467
0 0.95964 0.831861
0 0.951232 0.817441
0 0.936416 0.792355
0.0675364 0.914382 0.756954
0.223056 0.884993 0.663966
0.583413 0.850614 0.521569
0.869642 0.820981 0.417456
0.961563 0.813153 0.386892
1 0.807294 0.371191
0 1 0.852583
0 1 0.84358
0 1 0.806973
0.0858167 1 0.760906
0.231891 0.990951 0.647745
0.549981 0.955322 0.483375
0.817502 0.944106 0.460029
0.938277 0.905104 0.339971
0.995865 0.885313 0.321798
0 1 0.84773
0 1 0.822553
0 1 0.779263
0.0816052 1 0.725902
0.224323 1 0.616815
0.525017 1 0.464088
0.76733 0.999969 0.433814
0.922087 0.995422 0.412024
0.984894 0.972198 0.327962
0 0.168032 1
0.0482338 0.159396 1
0.187381 0.148821 1
0.362173 0.119539 1
0.802197 0.0852522 1
1 0.0760662 1
1 0.0829328 1
1 0.0973373 1
1 0.114031 1
0 0.281636 1
0.0102083 0.273243 1
0.137453 0.264729 1
0.311681 0.239155 1
0.63209 0.203326 1
1 0.182269 1
1 0.185168 1
1 0.194949 1
1 0.207004 1
0 0.402686 1
0 0.396414 1
0.0886702 0.390936 1
0.25771 0.373877 1
0.473854 0.340261 1
0.962615 0.315435 1
1 0.318715 1
1 0.329625 1
1 0.342473 1
0 0.52871 1
0 0.525414 1
0.0337835 0.52166 1
0.192462 0.510689 1
0.384665 0.484367 0.999619
0.847623 0.461097 0.999405
1 0.458015 0.999954
1 0.468818 1
1 0.479728 1
0 0.664088 0.985519
0 0.66128 0.985779
0 0.656886 0.984771
0.125292 0.642969 0.980484
0.306233 0.608789 0.966522
0.67512 0.575265 0.947875
0.972671 0.566995 0.937881
1 0.584451 0.949126
1 0.592691 0.958297
0 0.789761 0.945495
0 0.779248 0.939498
0 0.762402 0.929549
0.0675822 0.737804 0.914168
0.236637 0.717388 0.894026
0.558755 0.709743 0.886046
0.896437 0.696452 0.853605
0.999176 0.719188 0.871305
1 0.718303 0.870283
0 0.911711 0.939376
0 0.900374 0.92842
0 0.881559 0.910735
0.0445563 0.853834 0.884993
0.203983 0.836942 0.852033
0.423209 0.830915 0.824384
0.840574 0.828641 0.783001
0.967315 0.829557 0.76997
1 0.821027 0.749752
0 0.999832 0.965164
0 0.998627 0.956252
0 0.996689 0.942123
0.0643778 0.984787 0.922148
0.217456 0.97496 0.887266
0.381094 0.949752 0.806546
0.774227 0.924071 0.712551
0.934585 0.903807 0.636347
0.997345 0.889372 0.588495
0 1 0.970108
0 1 0.958083
0 1 0.940505
0.0664073 1 0.917754
0.215427 1 0.881773
0.378759 1 0.771466
0.729107 0.99913 0.660334
0.881605 0.989349 0.62562
0.979873 0.963119 0.515282
0 0.172259 1
0.0498512 0.16408 1
0.188876 0.153613 1
0.3635 0.124575 1
0.802731 0.0903029 1
1 0.081117 1
1 0.0879377 1
1 0.102647 1
1 0.119646 1
0 0.283864 1
0.0102541 0.275883 1
0.140169 0.267201 1
0.314443 0.242206 1
0.636088 0.206897 1
1 0.185565 1
1 0.188739 1
1 0.198871 1
1 0.210864 1
0 0.40557 1
0 0.400031 1
0.0922103 0.394568 1
0.261448 0.377935 1
0.475029 0.34403 1
0.966064 0.319341 1
1 0.322774 1
1 0.333608 1
1 0.346212 1
0 0.532616 1
0 0.529076 1
0.0379492 0.525673 1
0.196704 0.5149 1
0.389029 0.488334 1
0.85417 0.465171 1
1 0.462226 1
1 0.472313 1
1 0.482887 1
0 0.668162 1
0 0.665309 1
0 0.661753 1
0.130297 0.650874 1
0.313756 0.626276 1
0.641001 0.603265 1
0.972091 0.593408 1
1 0.602304 1
1 0.609064 1
0 0.799863 1
0 0.79559 1
0 0.790158 1
0.080766 0.779568 1
0.252171 0.762356 0.996719
0.449744 0.741573 0.987518
0.872389 0.723232 0.983551
0.997635 0.722469 0.980972
1 0.72282 0.981186
0 0.917723 1
0 0.910094 0.999863
0 0.899229 1
0.0550088 0.882612 0.990188
0.210452 0.855604 0.96846
0.378973 0.833326 0.945113
0.798062 0.829053 0.934249
0.951827 0.822385 0.919844
1 0.822797 0.921431
0 0.998032 1
0 0.994965 1
0 0.980591 1
0.0520027 0.961547 0.988602
0.195987 0.937224 0.958206
0.35642 0.915785 0.924041
0.707835 0.914092 0.903716
0.913481 0.905608 0.870741
0.99707 0.899962 0.855772
0 1 1
0 1 1
0 1 1
0.0500801 1 0.98645
0.197635 1 0.965423
0.363714 0.999954 0.939467
0.638117 0.999146 0.868406
0.862516 0.9776 0.811551
0.976654 0.958236 0.736233
0 0.177172 1
0.0519875 0.169131 1
0.190524 0.158679 1
0.365545 0.12987 1
0.805905 0.0956588 1
1 0.0863813 1
1 0.0935988 1
1 0.108629 1
1 0.125887 1
0 0.286763 1
0.0107424 0.278996 1
0.143145 0.270359 1
0.317708 0.245838 1
0.641749 0.210407 1
1 0.189807 1
1 0.192981 1
1 0.203174 1
1 0.21529 1
0 0.409094 1
0 0.403571 1
0.0962844 0.398871 1
0.265629 0.382239 1
0.477668 0.348241 1
0.971008 0.323369 1
1 0.327184 1
1 0.338201 1
1 0.350576 1
0 0.536797 1
0 0.533822 1
0.0421912 0.530221 1
0.201129 0.519463 1
0.393881 0.492729 1
0.862089 0.46952 1
1 0.466484 1
1 0.476127 1
1 0.486534 1
0 0.672663 1
0 0.670176 1
0 0.666362 1
0.134295 0.655497 1
0.317784 0.630243 1
0.64773 0.606821 1
0.976089 0.59646 1
1 0.604974 1
1 0.611276 1
0 0.803861 1
0 0.799832 1
0 0.793881 1
0.0839246 0.783001 1
0.254795 0.765377 1
0.44509 0.746059 1
0.868116 0.729458 1
0.996948 0.725475 1
1 0.726101 1
0 0.920439 1
0 0.912932 1
0 0.901411 1
0.0568399 0.884871 1
0.214618 0.865217 1
0.3832 0.848203 1
0.765423 0.832197 1
0.941344 0.823865 0.999969
1 0.818998 0.999771
0 0.998489 1
0 0.995636 1
0 0.980804 1
0.0513924 0.96051 1
0.19678 0.939315 1
0.356802 0.917311 0.998993
0.65156 0.905684 0.996796
0.894697 0.902708 0.982528
0.996429 0.894316 0.971756
0 1 1
0 1 1
0 1 1
0.0454414 1 1
0.186343 0.99823 1
0.344915 0.98645 0.998154
0.554131 0.974899 0.983993
0.839078 0.965118 0.95584
0.967208 0.960067 0.931395
