tracker_LUT/LUT/D_O_1.C0427.cube
TITLE "Generated by Resolve"
LUT_3D_SIZE 5
0 0 0
0 0 0
0.786191 0 0
1 0 0
1 0 0
0.0185092 0.0191348 0.018555
0.0470893 0.0472572 0.033463
0.770184 0.076463 0
1 0.165667 0
1 0.187778 0
0 0.505684 0
0 0.468437 0
0.575067 0.455772 0
0.985931 0.530388 0
1 0.551812 0
0 0.98883 0
0 0.966674 0
0.376699 0.934615 0
0.913359 0.868879 0
1 0.846754 0
0 1 0
0.00605783 1 0
0.344152 1 0
0.902266 1 0
1 1 0
0 0 0
0 0 0
0.806867 0 0.0962997
1 0 0.0895094
1 0 0.10016
0.0244755 0.0259403 0.025742
0.0527352 0.0531472 0.0520638
0.755947 0.0673075 0.027512
1 0.162509 0.0616007
1 0.184985 0.0827497
0 0.49247 0
0 0.455833 0
0.555154 0.441764 0
0.985306 0.52282 0
1 0.544076 0.00688182
0 0.9832 0.0198367
0 0.953643 0.00852979
0.347631 0.917403 0
0.905638 0.850797 0
1 0.828 0
0 1 0.0524758
0.002121 1 0.0307774
0.318898 1 0
0.87042 1 0
1 1 0
0 0.146395 0.918334
0.173022 0.101549 0.89424
0.829374 0.00852979 0.747143
1 0.0337377 0.759365
1 0.0632029 0.769314
0 0.288045 0.764218
0.0588083 0.245274 0.722942
0.611841 0.158419 0.454292
1 0.257816 0.656123
1 0.281743 0.681071
0 0.482231 0.488975
0 0.450294 0.449012
0.420615 0.429831 0.352422
0.980575 0.481743 0.282536
1 0.501045 0.297963
0 0.977722 0.489693
0 0.94551 0.42443
0.267613 0.87892 0.252033
0.892836 0.823285 0.184375
1 0.806668 0.180316
0 1 0.472114
0 1 0.394995
0.272923 1 0.272328
0.820935 1 0.230106
0.997528 0.990311 0.1991
0 0.168032 1
0.187381 0.148821 1
0.802197 0.0852522 1
1 0.0829328 1
1 0.114031 1
0 0.402686 1
0.0886702 0.390936 1
0.473854 0.340261 1
1 0.318715 1
1 0.342473 1
0 0.664088 0.985519
0 0.656886 0.984771
0.306233 0.608789 0.966522
0.972671 0.566995 0.937881
1 0.592691 0.958297
0 0.911711 0.939376
0 0.881559 0.910735
0.203983 0.836942 0.852033
0.840574 0.828641 0.783001
1 0.821027 0.749752
0 1 0.970108
0 1 0.940505
0.215427 1 0.881773
0.729107 0.99913 0.660334
0.979873 0.963119 0.515282
0 0.177172 1
0.190524 0.158679 1
0.805905 0.0956588 1
1 0.0935988 1
1 0.125887 1
0 0.409094 1
0.0962844 0.398871 1
0.477668 0.348241 1
1 0.327184 1
1 0.350576 1
0 0.672663 1
0 0.666362 1
0.317784 0.630243 1
0.976089 0.59646 1
1 0.611276 1
0 0.920439 1
0 0.901411 1
0.214618 0.865217 1
0.765423 0.832197 1
1 0.818998 0.999771
0 1 1
0 1 1
0.186343 0.99823 1
0.554131 0.974899 0.983993
0.967208 0.960067 0.931395
