tracker_LUT/LUT/D_O_1.C0427.cube
TITLE "Generated by Resolve"
LUT_3D_SIZE 33
0 0 0
0 0 0
0 0 0
0 0 0
0 0 0
0 0 0
0 0 0
0 0 0
0 0 0
0 0 0
1.5259e-05 1.5259e-05 1.5259e-05
0.0110933 0.0110933 0.0110933
0.0419013 0.0281224 0.0279698
0.130388 0.0345617 0.0321965
0.305974 0.017731 0.015198
0.557336 0.000518807 0
0.786191 0 0
0.902388 0 0
0.95491 0 0
0.985534 0 0
1 0 0
1 0 0
1 0 0
1 0 0
1 0 0
1 0 0
1 0 0
1 0 0
1 0 0
1 0 0
1 0 0
1 0 0
1 0 0
0 0 0
0 0 0
0 0 0
0 0 0
0 0 0
0 0 0
0 0 0
0 0 0
0 0 0
0 0 0
0.00117494 0.00117494 0.00117494
0.0183413 0.0178073 0.0177615
0.0582895 0.0332952 0.0319829
0.167391 0.0341955 0.0259556
0.366964 0.0157473 0.00901808
0.613352 7.62951e-05 0
0.814145 0 0
0.913024 0 0
0.955337 0 0
0.984237 0 0
1 0 0
1 0 0
1 0 0
1 0 0
1 0 0
1 0 0
1 0 0
1 0 0
1 0 0
1 0 0
1 0 0
1 0.000167849 0
1 0.000457771 0
0 0 0
0 0 0
0 0 0
0 0 0
0 0 0
0 0 0
0 0 0
0 0 0
0 0 0
0 0 0
0.00749218 0.00749218 0.00749218
0.0289006 0.0247807 0.0242161
0.0784924 0.0375677 0.0332647
0.206836 0.0334325 0.0178531
0.423178 0.0141451 0.00215152
0.659037 0 0
0.829908 0 0
0.914687 0 0
0.950744 0.000732433 0
0.979767 0.00195315 0
0.998337 0.0019379 0
1 0.00199893 0
1 0.00231937 0
1 0.00285344 0
1 0.00341802 0
1 0.00395209 0
1 0.00419623 0
1 0.00418097 0
1 0.00381476 0
1 0.00326543 0
1 0.00210575 0
1 0.00181582 0
1 0.00468452 0
0 0 0
0 0 0
0 0 0
0 0 0
0 0 0
0 0 0
0 0 0
0 0 0
0.000244144 0.000244144 0.000244144
0.00419623 0.00419623 0.00419623
0.0158083 0.0157778 0.0157626
0.042649 0.0319677 0.0296025
0.105028 0.0412604 0.0303044
0.247196 0.0332036 0.0128634
0.467079 0.0130007 0
0.689082 0 0
0.836316 0 0
0.909438 0.00390631 0
0.94406 0.0134127 0
0.974395 0.0179599 0
0.995468 0.0169985 0
1 0.016144 0
1 0.016083 0
1 0.0163119 0
1 0.017258 0
1 0.0184939 0
1 0.0201267 0
1 0.0218814 0
1 0.0241703 0
1 0.0261692 0
1 0.0285954 0
1 0.0307012 0
1 0.0331884 0
0 0 0
0 0 0
0 0 0
0 0 0
0 0 0
0 0 0
0 0 0
0.000335698 0.000335698 0.000335698
0.00250248 0.00250248 0.00250248
0.0126192 0.0126192 0.0126192
0.0265507 0.0250553 0.0242771
0.0584726 0.0388037 0.0323491
0.135225 0.0448157 0.0220645
0.285893 0.0339971 0.0068513
0.501595 0.0127413 0
0.706432 0 0
0.83267 0.00282292 0
0.899275 0.0149844 0
0.937499 0.0345617 0
0.969329 0.0449226 0
0.992401 0.0440986 0
1 0.0436866 0
1 0.0435187 0
1 0.0441901 0
1 0.0453498 0
1 0.0466468 0
1 0.0486305 0
1 0.05066 0
1 0.0527047 0
1 0.0550698 0
1 0.0576333 0
1 0.0600595 0
1 0.0627298 0
0 0 0
0 0 0
0 0 0
0 0 0
0 0 0
0 0 0
0.000381476 0.000381476 0.000381476
0.00251774 0.00251774 0.00251774
0.00950637 0.00947585 0.00946059
0.0233768 0.0229191 0.022385
0.0402686 0.0347753 0.0308537
0.0767224 0.0456855 0.0311589
0.165209 0.048661 0.0136721
0.323507 0.0361028 0.00146487
0.530297 0.0156863 0
0.712779 0.00556954 0
0.822202 0.0133669 0
0.887144 0.0324712 0
0.931304 0.0562448 0
0.964431 0.071458 0
0.989487 0.0720073 0
1 0.0717632 0
1 0.0717784 0
1 0.0724804 0
1 0.0738079 0
1 0.0757153 0
1 0.0775311 0
1 0.0798199 0
1 0.0823529 0
1 0.0847486 0
1 0.0872053 0
1 0.090074 0
1 0.092668 0
0 0 0
0 0 0
0.000427253 0.000427253 0.000427253
0.0012665 0.0012665 0.0012665
0.00224308 0.00224308 0.00224308
0.00325017 0.00325017 0.00325017
0.0049897 0.0049897 0.0049897
0.00973526 0.00972 0.00967422
0.0204166 0.020264 0.0198062
0.0350805 0.0332494 0.0302129
0.0562295 0.0445258 0.0329442
0.0972152 0.0530251 0.0241855
0.195132 0.0535897 0.00775158
0.356786 0.0407721 0
0.550347 0.0240024 0
0.710277 0.0202945 0
0.806851 0.0325933 0
0.874479 0.0523537 0
0.925048 0.0773785 0
0.959121 0.0961013 0
0.986725 0.10074 0
1 0.100542 0
1 0.100877 0
1 0.101778 0
1 0.103395 0
1 0.105074 0
1 0.1075 0
1 0.10988 0
1 0.112306 0
1 0.115099 0
1 0.117891 0
1 0.120546 0
1 0.123522 0
0.00325017 0.00325017 0.00325017
0.00364691 0.00364691 0.00364691
0.00523384 0.00526436 0.00523384
0.00802625 0.00810254 0.00798047
0.0113375 0.0114595 0.0112154
0.0146639 0.014847 0.0143893
0.0183566 0.018555 0.017792
0.0234684 0.0235904 0.0222477
0.0327459 0.0323644 0.0292973
0.0479591 0.0440375 0.0335699
0.0737163 0.054963 0.0279088
0.119646 0.0615549 0.01178
0.224033 0.0605478 0.00224308
0.386328 0.0489662 0
0.562722 0.036759 0
0.700511 0.0383001 0
0.789151 0.0536049 0
0.861677 0.0737621 0
0.918166 0.097734 0
0.953201 0.119646 0
0.983642 0.13051 0
1 0.130495 0
1 0.131121 0
1 0.132143 0
1 0.13373 0
1 0.135836 0
1 0.138231 0
1 0.140551 0
1 0.143481 0
1 0.146197 0
1 0.149157 0
1 0.151965 0
1 0.155001 0
0.0185092 0.0191348 0.018555
0.0214389 0.0220645 0.0214084
0.0242618 0.0251164 0.024094
0.0270695 0.0282139 0.0265812
0.0299992 0.031632 0.0287938
0.0328985 0.0347448 0.0305791
0.0362249 0.038117 0.0320439
0.0403296 0.0418402 0.0330816
0.0470893 0.0472572 0.033463
0.0628824 0.0577096 0.0294957
0.0935531 0.0683146 0.0124361
0.144091 0.0728161 0.00251774
0.247807 0.0708629 0
0.39971 0.0616922 0
0.558877 0.0538643 0
0.683223 0.0591897 0
0.770184 0.076463 0
0.844739 0.0965133 0
0.905348 0.119646 0
0.945846 0.145266 0
0.976852 0.161105 0
0.99649 0.16199 0
1 0.162661 0
1 0.163897 0
1 0.165667 0
1 0.167727 0
1 0.170123 0
1 0.172946 0
1 0.175723 0
1 0.178592 0
1 0.18172 0
1 0.184527 0
1 0.187778 0
0.0328374 0.0434882 0.0335699
0.0345312 0.046891 0.0340581
0.0364385 0.0503395 0.0339971
0.0388342 0.0538949 0.0334936
0.0416571 0.0574197 0.0321965
0.0451667 0.0609598 0.0302281
0.0494698 0.0642252 0.027512
0.054963 0.0675212 0.0237583
0.0626841 0.0711376 0.0182956
0.0769055 0.0770581 0.00663767
0.110399 0.0864576 0.00154116
0.172732 0.0925917 0.000213626
0.271489 0.0901656 0
0.405249 0.0822309 0
0.545571 0.076173 0
0.660182 0.08159 0
0.749889 0.0990768 0
0.826383 0.11957 0
0.8907 0.14313 0
0.936233 0.169253 0
0.967865 0.189303 0
0.991653 0.194995 0
1 0.195575 0
1 0.197009 0
1 0.198856 0
1 0.20116 0
1 0.203662 0
1 0.206348 0
1 0.209247 0
1 0.212207 0
1 0.215244 0
1 0.218387 0
1 0.221515 0
0.0177615 0.0798962 0.021973
0.0188449 0.0841382 0.0175174
0.0209812 0.0883345 0.0121462
0.024033 0.0922408 0.00799573
0.0282902 0.0962081 0.00622568
0.0341344 0.0997024 0.00578317
0.0416876 0.102785 0.00520333
0.0513161 0.105989 0.00421149
0.0640726 0.108248 0.0031281
0.0823682 0.112215 0.000869764
0.117342 0.115953 0.000137331
0.18027 0.118975 0
0.274998 0.119509 0
0.396094 0.118746 0
0.522515 0.116579 0
0.636728 0.116793 0
0.730495 0.123384 0
0.808148 0.138445 0
0.874754 0.163699 0
0.924712 0.19202 0
0.957183 0.216571 0
0.985016 0.227893 0
0.99881 0.229007 0
1 0.230488 0
1 0.232395 0
1 0.234806 0
1 0.237278 0
1 0.239933 0
1 0.243046 0
1 0.245884 0
1 0.249119 0
1 0.252216 0
1 0.255512 0
0.00418097 0.138399 0.00569162
0.00450141 0.142794 0.00408942
0.00527962 0.146349 0.00218204
0.0061799 0.149981 0.000579843
0.00756847 0.152789 0
0.00947585 0.15494 0
0.0128481 0.156909 0
0.0215763 0.158175 0
0.0420691 0.158328 0
0.068574 0.158129 0
0.105043 0.161028 0
0.167666 0.1579 0
0.258381 0.154925 0
0.371557 0.157382 0
0.494942 0.162509 0
0.61149 0.166613 0
0.709636 0.169787 0
0.789929 0.177798 0
0.858595 0.193622 0
0.911559 0.21529 0
0.945739 0.24033 0
0.975311 0.256382 0
0.99498 0.258793 0
1 0.260822 0
1 0.262928 0
1 0.265171 0
1 0.267857 0
1 0.270573 0
1 0.273411 0
1 0.276585 0
1 0.279515 0
1 0.282643 0
1 0.28603 0
0 0.216724 0
0 0.217929 0
0 0.218769 0
0 0.218982 0
0 0.218997 0
0 0.218387 0
0.000579843 0.217243 0
0.00370794 0.215824 0
0.0131685 0.213413 0
0.044358 0.210376 0
0.0827344 0.209766 0
0.140642 0.210529 0
0.225834 0.202167 0
0.338064 0.19942 0
0.464363 0.206897 0
0.585458 0.216587 0
0.687633 0.225238 0
0.770108 0.233143 0
0.840665 0.244495 0
0.896941 0.26009 0
0.933593 0.279606 0
0.96347 0.293172 0
0.988067 0.294896 0
0.998962 0.295857 0
1 0.29749 0
1 0.299519 0
1 0.301381 0
1 0.303365 0
1 0.305715 0
1 0.307362 0
1 0.309514 0
1 0.313008 0
1 0.315923 0
0 0.29604 0
0 0.294011 0
0 0.290608 0
0 0.2878 0
0 0.284337 0
0 0.2813 0
0 0.277775 0
0 0.27422 0
0 0.270054 0
0.0230106 0.265721 0
0.0608682 0.261799 0
0.110796 0.264347 0
0.188952 0.265156 0
0.297902 0.256062 0
0.427436 0.252827 0
0.55758 0.264073 0
0.664942 0.27744 0
0.749905 0.290333 0
0.821653 0.304921 0
0.880751 0.321706 0
0.920943 0.3393 0
0.9514 0.349523 0
0.977981 0.351446 0
0.995804 0.351614 0
1 0.353185 0
1 0.355108 0
1 0.358557 0
1 0.361517 0
1 0.36463 0
1 0.368185 0
1 0.37171 0
1 0.375204 0
1 0.379553 0
0 0.367193 0
0 0.363119 0
0 0.358526 0
0 0.353429 0
0 0.348745 0
0 0.344137 0
0 0.339757 0
0 0.335286 0
0 0.330648 0
0.00775158 0.325429 0
0.0427558 0.320348 0
0.0866407 0.319509 0
0.153323 0.328328 0
0.256703 0.3308 0
0.387091 0.318898 0
0.522072 0.313497 0
0.63978 0.326711 0
0.729412 0.342824 0
0.802304 0.360082 0
0.863767 0.379507 0
0.907317 0.398688 0
0.93843 0.412695 0
0.965652 0.418296 0
0.989044 0.420417 0
0.9991 0.422278 0
1 0.425467 0
1 0.428748 0
1 0.431983 0
1 0.435538 0
1 0.439551 0
1 0.443107 0
1 0.447074 0
1 0.450584 0
0 0.434882 0
0 0.431159 0
0 0.426184 0
0 0.421302 0
0 0.416342 0
0 0.41149 0
0 0.406943 0
0 0.402304 0
0 0.397009 0
0.000198367 0.391211 0
0.0291752 0.385733 0
0.0697795 0.381826 0
0.124605 0.387717 0
0.216266 0.40415 0
0.343542 0.405692 0
0.482444 0.385794 0
0.609018 0.379095 0
0.706294 0.393347 0
0.782513 0.411337 0
0.846464 0.430671 0
0.892973 0.45005 0
0.925032 0.466529 0
0.952636 0.474296 0
0.976806 0.477348 0
0.994827 0.479622 0
0.999756 0.481971 0
1 0.48455 0
1 0.487541 0
1 0.490501 0
1 0.494179 0
1 0.49723 0
1 0.500313 0
1 0.503456 0
0 0.505684 0
0 0.50193 0
0 0.497429 0
0 0.492744 0
0 0.487846 0
0 0.483299 0
0 0.478431 0
0 0.473594 0
0 0.468437 0
0 0.462287 0
0.020676 0.456443 0
0.0576638 0.451713 0
0.105913 0.452949 0
0.180835 0.466896 0
0.299397 0.487892 0
0.443198 0.485359 0
0.575067 0.455772 0
0.680323 0.448249 0
0.760967 0.461799 0
0.828 0.479545 0
0.878141 0.497627 0
0.911452 0.515023 0
0.939635 0.524636 0
0.963928 0.527764 0
0.985931 0.530388 0
0.998459 0.532555 0
1 0.535256 0
1 0.538003 0
1 0.540917 0
1 0.543526 0
1 0.546426 0
1 0.549081 0
1 0.551812 0
0 0.576959 0
0 0.574029 0
0 0.569528 0
0 0.564614 0
0 0.560464 0
0 0.555428 0
0 0.550927 0
0 0.546258 0
0 0.541268 0
0 0.534936 0
0.0142672 0.528771 0
0.047303 0.523552 0
0.092668 0.521141 0
0.156466 0.530846 0
0.259297 0.553262 0
0.400443 0.571588 0
0.542229 0.55903 0
0.651377 0.52134 0
0.737713 0.516106 0
0.808454 0.528832 0
0.862608 0.544671 0
0.898039 0.560769 0
0.926757 0.570962 0
0.951156 0.574563 0
0.973358 0.577569 0
0.993744 0.579843 0
0.999817 0.5823 0
1 0.585016 0
1 0.587518 0
1 0.590036 0
1 0.59263 0
1 0.594919 0
1 0.597528 0
0 0.648417 0
0 0.645808 0
0 0.641016 0
0 0.636759 0
0 0.631815 0
0 0.627329 0
0 0.623148 0
0 0.618311 0
0 0.613291 0
0 0.607156 0
0.0101625 0.600443 0
0.0393225 0.594888 0
0.0827039 0.591775 0
0.139162 0.596979 0
0.227893 0.614786 0
0.359884 0.636622 0
0.504829 0.644282 0
0.623789 0.619028 0
0.713283 0.585443 0
0.78735 0.581918 0
0.846052 0.591775 0
0.884688 0.604425 0
0.914351 0.615839 0
0.939208 0.620584 0
0.961288 0.622889 0
0.981384 0.625345 0
0.997528 0.627314 0
1 0.629786 0
1 0.631937 0
1 0.63444 0
1 0.636561 0
1 0.638773 0
1 0.640726 0
0 0.717357 0
0 0.716014 0
0 0.711452 0
0 0.706783 0
0 0.702098 0
0 0.698024 0
0 0.69337 0
0 0.688869 0
0 0.683482 0
0 0.677501 0
0.00823987 0.67071 0
0.0345769 0.664347 0
0.0756085 0.660319 0
0.127474 0.662074 0
0.205386 0.673304 0
0.323995 0.693797 0
0.465431 0.708461 0
0.594919 0.706569 0
0.690196 0.675868 0
0.765667 0.64654 0
0.828489 0.64242 0
0.871931 0.648508 0
0.902678 0.658961 0
0.927932 0.664561 0
0.950088 0.666896 0
0.969985 0.669093 0
0.988678 0.670924 0
0.999527 0.67306 0
1 0.675029 0
1 0.677089 0
1 0.679118 0
1 0.680842 0
1 0.682399 0
0 0.783948 0
0 0.782589 0
0 0.778256 0
0 0.773922 0
0 0.769909 0
0 0.765179 0
0 0.760754 0
0 0.756054 0
0 0.750957 0
0 0.745281 0
0.00782788 0.738567 0
0.0328527 0.731701 0
0.0717784 0.726619 0
0.119951 0.725521 0
0.190097 0.731624 0
0.296574 0.748028 0
0.430304 0.7617 0
0.564294 0.769085 0
0.668544 0.760464 0
0.744442 0.728771 0
0.810666 0.702525 0
0.860273 0.697475 0
0.891524 0.701885 0
0.917403 0.706386 0
0.939666 0.708186 0
0.95967 0.710231 0
0.978286 0.712383 0
0.995224 0.714046 0
1 0.715831 0
1 0.717525 0
1 0.718914 0
1 0.720302 0
1 0.721569 0
0 0.845075 0
0 0.844511 0
0 0.84062 0
0 0.836591 0
0 0.832578 0
0 0.828305 0
0 0.823713 0
0 0.819043 0
0 0.814237 0
0 0.808591 0
0.00828565 0.802136 0
0.0330663 0.795056 0
0.0706188 0.789044 0
0.115648 0.78703 0
0.180285 0.789654 0
0.276509 0.799374 0
0.402319 0.810422 0
0.533165 0.8168 0
0.646372 0.818647 0
0.727062 0.807324 0
0.793133 0.776761 0
0.847059 0.752758 0
0.881666 0.747768 0
0.90808 0.74844 0
0.930419 0.748058 0
0.950271 0.749111 0
0.968719 0.751003 0
0.985977 0.752468 0
0.998459 0.753796 0
1 0.755047 0
1 0.755993 0
1 0.756497 0
1 0.757397 0
0 0.899214 0
0 0.899153 0
0 0.89546 0
0 0.891691 0
0 0.887663 0
0 0.883772 0
0 0.879942 0
0 0.875746 0
0 0.870726 0
0 0.865476 0
0.00959792 0.859068 0
0.0358587 0.85214 0
0.072694 0.846281 0
0.115984 0.843503 0
0.177325 0.844129 0
0.26598 0.847395 0
0.382849 0.8551 0
0.508675 0.859937 0
0.623545 0.862272 0
0.712825 0.860807 0
0.779934 0.847425 0
0.834699 0.817945 0
0.873945 0.797299 0
0.900526 0.792645 0
0.922957 0.789242 0
0.942504 0.786404 0
0.96083 0.786435 0
0.977874 0.787564 0
0.99324 0.788281 0
1 0.788907 0
1 0.789364 0
1 0.789502 0
1 0.789761 0
0 0.949767 0
0 0.949996 0
0 0.946731 0
0 0.942504 0
0 0.938323 0
0 0.934203 0
0 0.929824 0
0 0.925429 0
0 0.920546 0
0.000732433 0.914946 0
0.0135805 0.908827 0
0.0436255 0.90219 0
0.0793774 0.896315 0
0.122881 0.893965 0
0.181109 0.892454 0
0.263661 0.891463 0
0.375494 0.896361 0
0.49514 0.899748 0
0.607477 0.901579 0
0.700664 0.901976 0
0.772732 0.897917 0
0.828595 0.881285 0
0.868482 0.852918 0
0.895079 0.836454 0
0.917205 0.83003 0
0.936645 0.824628 0
0.954376 0.820661 0
0.971145 0.819089 0
0.98706 0.819318 0
0.998581 0.819425 0
1 0.819471 0
1 0.819074 0
1 0.818769 0
0 0.98883 0
0 0.98909 0
0 0.987808 0
0 0.984451 0
0 0.981308 0
0 0.978225 0
0 0.97496 0
0 0.971466 0
0 0.966674 0
0.00578317 0.960723 0
0.026215 0.954314 0
0.0585489 0.947173 0
0.093492 0.941192 0
0.13637 0.938491 0
0.191943 0.935607 0
0.270176 0.932265 0
0.376699 0.934615 0
0.490929 0.937102 0
0.599145 0.938216 0
0.690898 0.938369 0
0.76643 0.936873 0
0.828092 0.929976 0
0.871443 0.910567 0
0.894423 0.883345 0
0.913359 0.868879 0
0.932296 0.861875 0
0.949462 0.855833 0
0.965621 0.850935 0
0.98146 0.84918 0
0.995224 0.849119 0
1 0.848539 0
1 0.847623 0
1 0.846754 0
0 1 0
0 1 0
0 1 0
0 1 0
0 1 0
0 1 0
0 0.999329 0
0 0.997787 0
0.000381476 0.995285 0
0.0129702 0.992248 0
0.0436713 0.989517 0
0.0770886 0.986633 0
0.111101 0.982681 0
0.153017 0.979553 0
0.207507 0.976211 0
0.28188 0.970748 0
0.38175 0.970169 0
0.489921 0.971756 0
0.593057 0.970565 0
0.68159 0.966613 0
0.757031 0.962448 0
0.82237 0.958297 0
0.875975 0.95288 0
0.904036 0.935943 0
0.915007 0.910048 0
0.930434 0.896681 0
0.946838 0.88954 0
0.962249 0.88365 0
0.977462 0.879835 0
0.992096 0.879057 0
1 0.877836 0
1 0.876432 0
1 0.874907 0
0 1 0
0 1 0
0 1 0
0 1 0
0 1 0
0 1 0
0 1 0
0 1 0
0.00198367 1 0
0.0176852 1 0
0.0520638 1 0
0.0864424 0.999771 0
0.122423 0.998917 0
0.166827 0.998047 0
0.222644 0.997391 0
0.295354 0.996658 0
0.386816 0.996811 0
0.48719 0.996658 0
0.584131 0.991867 0
0.670817 0.986023 0
0.745922 0.980575 0
0.813031 0.976242 0
0.871122 0.972702 0
0.908904 0.969177 0
0.92665 0.957702 0
0.933928 0.934447 0
0.946899 0.922042 0
0.961456 0.914611 0
0.97583 0.908934 0
0.990631 0.907149 0
0.999954 0.905776 0
1 0.904204 0
1 0.902739 0
0 1 0
0 1 0
0 1 0
0 1 0
0 1 0
0 1 0
0 1 0
0 1 0
0.00401312 1 0
