tracker_LUT/LUT/filmlook_28.A049_12291751_S.cube
TITLE "Generated by Resolve"
LUT_3D_SIZE 9
0.00633249 0.0107118 0.0106355
0.0423743 0.0103609 0.00979629
0.102159 0.0127413 0.00820935
0.256886 0.0425574 0.00604257
0.436271 0.092668 0.00564584
0.555291 0.121981 0.00602731
0.631449 0.137102 0.00640879
0.691783 0.146838 0.0065156
0.740108 0.152819 0.00680552
0.00848402 0.0513771 0.0198062
0.04094 0.0503243 0.0183261
0.0965286 0.0492714 0.0123445
0.234348 0.0680247 0.00682078
0.421805 0.118837 0.00593576
0.551156 0.151064 0.00619516
0.630503 0.167086 0.00653086
0.691829 0.177264 0.00665293
0.73872 0.183139 0.00686656
0.0126345 0.114687 0.046128
0.0427405 0.114778 0.0459144
0.0917525 0.107912 0.0339971
0.207523 0.114382 0.0121004
0.386572 0.148135 0.00715648
0.533867 0.181613 0.00648508
0.624201 0.200687 0.0062562
0.692821 0.213077 0.0062562
0.742 0.219638 0.00636301
0.0151064 0.21886 0.104967
0.0459754 0.225589 0.11043
0.0878614 0.221393 0.104997
0.175128 0.213931 0.0800946
0.399496 0.245228 0.00807202
0.542565 0.255634 0.0059205
0.632532 0.254719 0.00582895
0.702098 0.260151 0.00561532
0.75787 0.268788 0.00547799
0.04654 0.374533 0.206485
0.0788891 0.382757 0.213199
0.112093 0.381201 0.211246
0.16791 0.374075 0.20148
0.343481 0.373953 0.159304
0.597375 0.417578 0.00317388
0.689525 0.410773 0.000762951
0.756771 0.401984 0.00108339
0.80853 0.393317 0.00178531
0.0777905 0.517205 0.300084
0.108095 0.523445 0.305409
0.147707 0.522393 0.302861
0.19028 0.520897 0.300511
0.305608 0.527199 0.275959
0.532692 0.520378 0.217273
0.737148 0.561425 0.0300298
0.80235 0.551965 1.5259e-05
0.865873 0.549157 0
0.0686809 0.636072 0.378515
0.0984817 0.640848 0.38265
0.158206 0.638239 0.376562
0.210254 0.634546 0.370047
0.299855 0.641993 0.361334
0.480842 0.63856 0.311635
0.670893 0.62446 0.242557
0.844907 0.668391 0.0889906
0.893019 0.651225 0.0019379
0.0600595 0.733928 0.438361
0.0918288 0.735759 0.439719
0.15761 0.735088 0.435447
0.224262 0.730465 0.42649
0.295003 0.731121 0.418036
0.46096 0.736614 0.36759
0.623316 0.726207 0.354452
0.784833 0.720943 0.269413
0.928054 0.750515 0.139406
0.0497902 0.780591 0.454002
0.0894026 0.780468 0.452964
0.157885 0.780026 0.448753
0.22594 0.778195 0.442222
0.2934 0.780392 0.436591
0.45037 0.796033 0.400992
0.59646 0.801877 0.38381
0.739879 0.792203 0.371725
0.900572 0.807279 0.270604
0.00941482 0.0192416 0.0496986
0.044358 0.0175479 0.0480201
0.0973373 0.017792 0.0480201
0.25626 0.0380102 0.0410163
0.435431 0.09131 0.0388647
0.556619 0.121721 0.0377203
0.633097 0.137133 0.0373236
0.693126 0.146838 0.037232
0.740917 0.152605 0.0376135
0.0106813 0.0548714 0.0551461
0.0424964 0.0542916 0.0545052
0.0952468 0.0511635 0.049836
0.236149 0.0661021 0.0418555
0.42327 0.118151 0.0384375
0.552804 0.150805 0.0376898
0.632258 0.167025 0.037583
0.693278 0.177111 0.037705
0.739605 0.182712 0.038117
0.0141756 0.11693 0.0810559
0.0444648 0.117662 0.0813916
0.0904707 0.110857 0.0703288
0.209918 0.113573 0.0455024
0.389624 0.147341 0.0389563
0.535912 0.181003 0.037705
0.625803 0.199985 0.0372931
0.694286 0.212238 0.0373236
0.742428 0.218357 0.0378729
0.016495 0.223804 0.139971
0.0469215 0.231891 0.146807
0.0863813 0.227955 0.14107
0.177783 0.218463 0.114061
0.404028 0.246159 0.0393835
0.545205 0.255451 0.0364385
0.63418 0.254063 0.0363317
0.70277 0.259419 0.0364538
0.756878 0.267109 0.0367437
0.0443427 0.380087 0.24155
0.0746014 0.389838 0.249958
0.111864 0.388312 0.24744
0.169451 0.37882 0.235431
0.347082 0.377188 0.191974
0.599878 0.418952 0.032578
0.690974 0.411566 0.0305028
0.757687 0.401724 0.0309758
0.808179 0.391394 0.0319219
0.0705272 0.522454 0.335363
0.0923781 0.531212 0.343832
0.138476 0.529625 0.340337
0.188937 0.52488 0.33373
0.306294 0.529824 0.308049
0.536431 0.522927 0.247807
0.737636 0.5617 0.0600137
0.802716 0.551675 0.029633
0.865629 0.547646 0.0296178
0.0313268 0.643977 0.42005
0.0500343 0.649836 0.42678
0.122438 0.650446 0.421393
0.20061 0.641276 0.407248
0.29839 0.643595 0.393454
0.481514 0.640696 0.342702
0.672557 0.626261 0.273533
0.843961 0.667491 0.117937
0.893416 0.650309 0.0317693
0.00198367 0.732235 0.482658
0.0319982 0.734035 0.484581
0.0794537 0.751095 0.490105
0.195239 0.743404 0.472236
0.2916 0.734249 0.45272
0.458869 0.738903 0.400168
0.622904 0.727718 0.384863
0.785855 0.722255 0.299748
0.927962 0.749767 0.166369
0 0.77348 0.499123
0.0298314 0.777829 0.500862
0.0703136 0.793286 0.505852
0.184329 0.795636 0.494179
0.292332 0.785962 0.47396
0.445243 0.798444 0.436133
0.594934 0.803128 0.414496
0.740414 0.793194 0.40209
0.900328 0.807935 0.301488
0.0133364 0.040177 0.112016
0.0470893 0.037171 0.107485
0.0927901 0.033051 0.105104
0.256352 0.0277409 0.0969406
0.436347 0.0748455 0.0738079
0.55816 0.116075 0.0734112
0.633783 0.134478 0.0757458
0.692866 0.14493 0.0764935
0.739666 0.150744 0.0769818
0.013611 0.0751202 0.116243
0.0452277 0.0742351 0.115404
0.0920882 0.067628 0.107942
0.238987 0.0598459 0.0969558
0.426154 0.103563 0.0747234
0.555215 0.145769 0.0746471
0.633326 0.16463 0.0765698
0.693462 0.175479 0.0771496
0.738735 0.181048 0.0776684
0.0163577 0.127794 0.13135
0.0469368 0.129259 0.133074
0.0926223 0.12636 0.129824
0.21709 0.116747 0.107988
0.399924 0.142306 0.0881208
0.541863 0.178515 0.0810712
0.629679 0.198383 0.075639
0.697429 0.210925 0.0741741
0.74464 0.217151 0.0747997
0.0102235 0.239673 0.193591
0.0388647 0.248493 0.201663
0.0741741 0.253742 0.204685
0.186252 0.238071 0.171359
0.418036 0.245136 0.0865034
0.552789 0.249836 0.0775311
0.638025 0.250462 0.0738079
0.706157 0.257206 0.0728618
0.75877 0.264637 0.0731365
0.00155642 0.401282 0.305074
0.0302281 0.410132 0.314
0.0632944 0.413947 0.314794
0.165179 0.404639 0.292592
0.366003 0.395407 0.236011
0.611505 0.420035 0.0628061
0.69778 0.410498 0.0619059
0.763012 0.401221 0.062501
0.811765 0.390204 0.0635538
0.000350958 0.535897 0.39823
0.0296178 0.542245 0.405661
0.0607004 0.548409 0.406897
0.144503 0.554192 0.397055
0.304677 0.540093 0.353063
0.557183 0.535073 0.281743
0.743877 0.563333 0.0887465
0.804669 0.55079 0.0592813
0.865217 0.544213 0.0592508
0 0.64538 0.475532
0.0296178 0.650584 0.481392
0.0592508 0.655726 0.481315
0.102358 0.668009 0.478706
0.293355 0.650736 0.436835
0.487205 0.649836 0.380713
0.689219 0.638544 0.308309
0.84538 0.668147 0.148562
0.898131 0.65037 0.0607462
0 0.740932 0.540536
0.0296178 0.742947 0.542504
0.0592508 0.750835 0.544991
0.0910048 0.759228 0.541375
0.292683 0.752499 0.506432
0.454231 0.749477 0.44535
0.627283 0.73846 0.423041
0.795087 0.731701 0.33724
0.933684 0.753674 0.195987
0 0.786786 0.558755
0.0296178 0.788281 0.559014
0.0592508 0.79585 0.561196
0.0897078 0.806332 0.560037
0.287449 0.811154 0.536171
0.430854 0.809812 0.488807
0.593942 0.813993 0.453162
0.748516 0.80444 0.442069
0.908202 0.819089 0.345129
0.037995 0.0885176 0.210925
0.06804 0.0864271 0.208301
0.105638 0.0809644 0.201602
0.202213 0.0928359 0.221241
0.425757 0.0743725 0.20618
0.5823 0.0722972 0.147066
0.652003 0.10692 0.120256
0.70367 0.131365 0.112917
0.746532 0.141924 0.110552
0.0380865 0.121187 0.214099
0.0684062 0.120729 0.213581
0.104891 0.112963 0.203174
0.191287 0.120714 0.218479
0.41973 0.105852 0.207202
0.582147 0.103258 0.151904
0.655406 0.135409 0.124758
0.708171 0.159854 0.117113
0.748806 0.170596 0.115526
0.036408 0.178058 0.242802
0.0679332 0.180987 0.246815
0.10898 0.175479 0.24097
0.193027 0.171298 0.235309
0.413336 0.147356 0.2121
0.576715 0.141573 0.154818
0.656519 0.17351 0.133776
0.713817 0.196643 0.129915
0.75555 0.206607 0.13022
0.0167849 0.268635 0.2813
0.0466316 0.278401 0.291875
0.0878767 0.286824 0.298787
0.199359 0.286915 0.295552
0.419608 0.263661 0.241367
0.55848 0.257664 0.203067
0.645396 0.250202 0.175479
0.714839 0.255589 0.157992
0.764157 0.264347 0.156893
0.000183108 0.415473 0.363424
0.0298161 0.42417 0.372274
0.0593271 0.432883 0.379858
0.119463 0.458076 0.400275
0.371847 0.433799 0.327504
0.623133 0.429587 0.192676
0.714229 0.41416 0.170245
0.78262 0.402655 0.154803
0.83299 0.392416 0.144167
0 0.549706 0.459403
0.0296178 0.555444 0.465522
0.0592508 0.56437 0.473274
0.0890516 0.57995 0.483101
0.309667 0.573114 0.444541
0.569406 0.563149 0.357366
0.759731 0.574304 0.175814
0.832837 0.561746 0.12079
0.89044 0.553368 0.105943
0 0.656336 0.532372
0.0296178 0.660777 0.537163
0.0592508 0.670695 0.545373
0.0888685 0.679255 0.548745
0.274922 0.691539 0.528664
0.489174 0.675074 0.443503
0.703929 0.661753 0.375143
0.855253 0.677729 0.215335
0.92723 0.66659 0.106065
0 0.75227 0.597269
0.0296178 0.754131 0.59913
0.0592508 0.764645 0.60734
0.0888685 0.772244 0.60885
0.262959 0.799634 0.606943
0.455451 0.772152 0.52433
0.631495 0.762219 0.478874
0.807614 0.752529 0.401648
0.944381 0.766278 0.258396
0 0.797757 0.613779
0.0296178 0.799481 0.615061
0.0592508 0.809277 0.62266
0.0888685 0.819364 0.626352
0.26244 0.855467 0.636271
0.443671 0.833265 0.570153
0.591058 0.837522 0.514885
0.7523 0.827619 0.502083
0.916304 0.837644 0.413153
0.0724804 0.142123 0.309651
0.102159 0.140902 0.308141
0.136843 0.136095 0.301808
0.202884 0.145769 0.321218
0.336568 0.165682 0.345418
0.504112 0.160235 0.344732
0.63682 0.130129 0.320638
0.727123 0.102754 0.287098
0.784512 0.091722 0.260395
0.0744793 0.179202 0.318593
0.104295 0.178592 0.317861
0.137575 0.170901 0.307698
0.199542 0.175814 0.320134
0.333684 0.196521 0.346716
0.501457 0.194461 0.349477
0.63415 0.167239 0.329061
0.725292 0.142 0.300114
0.780163 0.132586 0.282475
0.0790875 0.241169 0.356863
0.11046 0.24419 0.360632
0.147768 0.240452 0.355627
0.214755 0.236591 0.349126
0.342 0.245792 0.366705
0.501228 0.234134 0.358999
0.63714 0.203952 0.334066
0.734401 0.180377 0.310536
0.786877 0.176761 0.300938
0.0649882 0.337606 0.421073
0.0958419 0.347356 0.431601
0.13576 0.354345 0.439628
0.222141 0.35433 0.440223
0.38262 0.348165 0.428107
0.544244 0.31458 0.392462
0.664485 0.269017 0.350179
0.753857 0.241856 0.31899
0.80827 0.240986 0.308217
0.0135653 0.456245 0.478828
0.042649 0.466087 0.489067
0.0726787 0.47512 0.496376
0.172412 0.489479 0.505257
0.401556 0.491081 0.496834
0.591852 0.469902 0.452018
0.690196 0.456748 0.425086
0.764874 0.446937 0.401892
0.821103 0.434836 0.383688
0 0.561242 0.518669
0.0296178 0.568093 0.526741
0.0592508 0.577035 0.534051
0.105455 0.610529 0.561013
0.350423 0.62884 0.573968
0.557992 0.605631 0.509194
0.732387 0.597803 0.431983
0.815625 0.586999 0.402274
0.883497 0.58117 0.377569
0 0.662623 0.581048
0.0296178 0.667094 0.585763
0.0592508 0.67744 0.595132
0.0901656 0.696269 0.611261
0.322026 0.734386 0.639841
0.510903 0.708736 0.584573
0.690166 0.696773 0.520272
0.836194 0.696361 0.429526
0.920211 0.685603 0.369635
0 0.758495 0.645106
0.0296178 0.76022 0.64686
0.0592508 0.771313 0.656474
0.0888991 0.784344 0.666697
0.319509 0.826001 0.695705
0.502846 0.810254 0.658778
0.626413 0.793683 0.582712
0.793423 0.783627 0.541955
0.932723 0.783413 0.442084
0 0.804883 0.662303
0.0296178 0.806317 0.663432
0.0592508 0.816785 0.672465
0.0890669 0.832059 0.684825
0.307362 0.876051 0.716228
0.512963 0.878599 0.698665
0.605295 0.867979 0.641932
0.738003 0.862821 0.611521
0.906981 0.863081 0.572473
0.0978866 0.185641 0.394614
0.128176 0.185122 0.393942
0.165927 0.181964 0.388907
0.227893 0.190692 0.405585
0.322179 0.204211 0.432303
0.443305 0.216648 0.442435
0.536461 0.220295 0.448478
0.620295 0.215885 0.4448
0.684123 0.208896 0.440009
0.100938 0.224475 0.405829
0.131121 0.224414 0.405737
0.168017 0.220706 0.400076
0.23238 0.227604 0.413199
0.323705 0.237476 0.436896
0.444648 0.249378 0.44596
0.536599 0.254398 0.45417
0.618662 0.252186 0.452308
0.675059 0.248859 0.450446
0.109209 0.292393 0.451698
0.140414 0.29572 0.455741
0.178256 0.293706 0.452659
0.25362 0.296986 0.452461
0.345953 0.29984 0.472251
0.45478 0.298558 0.465476
0.542977 0.29659 0.467582
0.630854 0.292912 0.463981
0.685176 0.291966 0.46363
0.104723 0.39324 0.527504
0.135149 0.401846 0.53666
0.172122 0.407889 0.543694
0.259663 0.412955 0.547936
0.396735 0.413077 0.539025
0.500023 0.39855 0.528038
0.582712 0.37348 0.507988
0.665415 0.350851 0.486458
0.726345 0.343801 0.480766
0.059678 0.51162 0.598962
0.088304 0.520134 0.607691
0.124392 0.526284 0.614115
0.226978 0.534646 0.620859
0.414725 0.540764 0.620111
0.561593 0.532601 0.602808
0.665019 0.515618 0.58262
0.761578 0.497902 0.559594
0.827054 0.484031 0.544503
0.00585946 0.599786 0.630869
0.0341802 0.605386 0.637186
0.0649424 0.615518 0.647623
0.178347 0.636637 0.662348
0.403433 0.6448 0.657435
0.575708 0.640024 0.643778
0.698955 0.626719 0.615946
0.785565 0.62417 0.600473
0.855024 0.62417 0.586389
7.62951e-05 0.678279 0.653971
0.0296178 0.682048 0.657969
0.0592508 0.689586 0.663157
0.12987 0.727977 0.694179
0.389944 0.743008 0.700465
0.555901 0.744244 0.698528
0.675914 0.723812 0.651194
0.805905 0.718959 0.614847
0.888243 0.714824 0.588266
0 0.765026 0.696406
0.0296178 0.766598 0.698116
0.0592508 0.777203 0.706722
0.108049 0.807568 0.733852
0.385183 0.835508 0.7561
0.55259 0.841047 0.755795
0.649165 0.823056 0.719951
0.774456 0.809781 0.675105
0.90515 0.806729 0.63415
0 0.811231 0.712657
0.0296178 0.812299 0.71313
0.0592508 0.82359 0.722194
0.105882 0.861738 0.756176
0.376822 0.885481 0.773938
0.552911 0.903609 0.784344
0.640543 0.907393 0.774289
0.742657 0.893614 0.736248
0.894408 0.88983 0.720897
0.115969 0.217441 0.464271
0.147097 0.217762 0.464546
0.194537 0.222278 0.467964
0.269947 0.237232 0.493431
0.335576 0.232944 0.502113
0.428519 0.243702 0.505943
0.512764 0.249729 0.514656
0.578592 0.253803 0.523247
0.62594 0.257237 0.527398
0.119539 0.257786 0.477272
0.150057 0.258122 0.477607
0.193942 0.259602 0.477653
0.27715 0.27718 0.50425
0.34078 0.269596 0.510216
0.431281 0.276921 0.51046
0.514977 0.283467 0.519341
0.581216 0.288045 0.529213
0.625544 0.29189 0.533944
0.128405 0.331868 0.530526
0.159548 0.335775 0.535256
0.199664 0.335332 0.533867
0.299611 0.35285 0.54725
0.373922 0.345769 0.556161
0.448676 0.335927 0.543893
0.527016 0.330556 0.53698
0.595102 0.333196 0.545876
0.639735 0.336996 0.550576
0.126894 0.43183 0.607263
0.156893 0.439612 0.615381
0.194598 0.445548 0.622202
0.290669 0.454978 0.629526
0.420325 0.459327 0.620874
0.50042 0.448218 0.623407
0.572869 0.428977 0.600198
0.633661 0.407385 0.585748
0.676631 0.402304 0.582788
0.0924544 0.546334 0.678813
0.12137 0.553323 0.685847
0.159792 0.557427 0.691066
0.267903 0.566155 0.699123
0.433143 0.574823 0.702541
0.562997 0.573877 0.689891
0.640085 0.565133 0.684169
0.721569 0.556909 0.673762
0.779309 0.550546 0.666957
0.0459449 0.634363 0.72192
0.0755322 0.639719 0.727642
0.114748 0.64622 0.735409
0.239139 0.658427 0.744549
0.423774 0.667948 0.745953
0.577951 0.668894 0.739101
0.677668 0.662211 0.722927
0.768521 0.658442 0.713832
0.847257 0.655253 0.703395
0.00613413 0.709117 0.746029
0.0363165 0.712489 0.749538
0.0673838 0.721096 0.758923
0.211032 0.743999 0.777676
0.426001 0.754772 0.776333
0.584024 0.754833 0.767468
0.686961 0.747189 0.753521
0.788922 0.737148 0.731807
0.872862 0.737865 0.717784
0 0.782101 0.769772
0.0296178 0.783444 0.771206
0.0622263 0.79382 0.778714
0.180301 0.825544 0.80499
0.4477 0.839597 0.80853
0.589639 0.848402 0.813718
0.680537 0.847791 0.808896
0.771893 0.83447 0.776913
0.896635 0.826886 0.745266
0 0.826535 0.782193
0.0296178 0.827207 0.781872
0.0627451 0.840894 0.791257
0.183551 0.872465 0.815808
0.44419 0.890867 0.825711
0.589715 0.910033 0.841398
0.677424 0.925963 0.851316
0.750698 0.933303 0.840986
0.899275 0.917464 0.806607
0.130037 0.24387 0.526848
0.161547 0.244083 0.52694
0.221317 0.258259 0.540734
0.312139 0.281178 0.576028
0.360296 0.264927 0.571603
0.425361 0.260151 0.56141
0.496147 0.268223 0.566217
0.563531 0.272877 0.572885
0.613397 0.275151 0.579293
0.133959 0.287022 0.543221
0.164843 0.287449 0.543648
0.215824 0.293446 0.548348
0.316152 0.320272 0.584573
0.367941 0.304433 0.582025
0.429175 0.295705 0.568963
0.49929 0.30251 0.572015
0.56672 0.30782 0.578912
0.613916 0.310704 0.585153
0.14226 0.367895 0.604395
0.173495 0.372305 0.609689
0.216571 0.373053 0.609384
0.33051 0.394156 0.623667
0.40296 0.387411 0.630655
0.455619 0.367422 0.616785
0.517586 0.356985 0.59942
0.581842 0.356924 0.599023
0.627955 0.359823 0.604776
0.139818 0.46157 0.673716
0.16994 0.468925 0.681376
0.2121 0.476692 0.690059
0.315373 0.489036 0.699413
0.440681 0.495079 0.692134
0.514992 0.487282 0.69749
0.573556 0.472572 0.684733
0.629465 0.451743 0.661265
0.670787 0.439796 0.652079
0.112871 0.568856 0.74107
0.142306 0.574853 0.747204
0.187961 0.580743 0.754482
0.301366 0.591104 0.76492
0.45066 0.602701 0.772107
0.566674 0.60737 0.767697
0.639017 0.601083 0.76846
0.710201 0.596948 0.759808
0.766186 0.592309 0.753384
0.0761578 0.654765 0.785412
0.106783 0.659236 0.790356
0.150637 0.666545 0.799084
0.279606 0.678996 0.810437
0.445762 0.691371 0.817227
0.571054 0.698894 0.824155
0.667033 0.694774 0.814099
0.74902 0.689998 0.805875
0.821591 0.689128 0.798718
0.0423896 0.731991 0.820859
0.0721447 0.735927 0.825376
0.110796 0.743877 0.834104
0.270726 0.759762 0.847242
0.455711 0.776196 0.856199
0.575463 0.782071 0.860075
0.674907 0.77612 0.851881
0.771344 0.766751 0.832013
0.857557 0.76408 0.819699
0.0189212 0.802686 0.84715
0.0494087 0.803952 0.8486
0.0923934 0.816068 0.860121
0.261509 0.833356 0.873945
0.483146 0.857939 0.888579
0.605264 0.867079 0.890242
0.698009 0.865202 0.882658
0.785245 0.862333 0.87248
0.894331 0.850294 0.8439
0.0195773 0.846906 0.859419
0.0489204 0.848035 0.860105
0.0945449 0.862654 0.872908
0.250568 0.876982 0.881514
0.486519 0.905776 0.897765
0.624582 0.922362 0.903532
0.714778 0.936141 0.910506
0.791028 0.95259 0.91986
0.905623 0.946853 0.890013
0.138109 0.259586 0.576104
0.169741 0.259617 0.575906
0.241062 0.283894 0.600214
0.346502 0.317617 0.646632
0.389013 0.298268 0.639612
0.428016 0.27715 0.616556
0.489693 0.281361 0.615686
0.552758 0.287343 0.619806
0.603357 0.289601 0.6224
0.142977 0.308064 0.598871
0.173938 0.308141 0.59881
0.231434 0.318563 0.607996
0.345357 0.353613 0.651194
0.395605 0.337255 0.648814
0.433646 0.313329 0.623789
0.494682 0.314321 0.619058
0.558312 0.320226 0.623468
0.606119 0.322805 0.62623
0.151522 0.396078 0.66833
0.182177 0.398596 0.67129
0.229114 0.399893 0.671061
0.344594 0.418006 0.680354
0.418631 0.413031 0.687114
0.466484 0.392355 0.67776
0.519936 0.376471 0.654795
0.575494 0.369482 0.644633
0.621576 0.370977 0.646021
0.148775 0.486976 0.733791
0.178058 0.491264 0.737881
0.227085 0.499641 0.74699
0.332341 0.511986 0.75555
0.450828 0.518181 0.751446
0.524392 0.512978 0.757443
0.581704 0.501884 0.750561
0.631846 0.482826 0.72755
0.670375 0.465126 0.708873
0.128267 0.586419 0.79588
0.156909 0.589929 0.798901
0.208194 0.597421 0.807477
0.326711 0.608728 0.819211
0.452262 0.624063 0.835309
0.557397 0.632502 0.843091
0.639475 0.627161 0.84152
0.709407 0.623575 0.836088
0.764294 0.62005 0.826062
0.100435 0.668482 0.838529
0.128679 0.671382 0.840894
0.178058 0.68043 0.851377
0.311391 0.694514 0.865125
0.441245 0.714153 0.887251
0.548043 0.726543 0.906722
0.655512 0.723827 0.897047
0.74374 0.717266 0.886351
0.807599 0.715465 0.880873
0.0670634 0.742535 0.871672
0.0961624 0.745174 0.874022
0.141878 0.755199 0.884855
0.307881 0.77348 0.901747
0.443824 0.803326 0.934905
0.551385 0.812421 0.948928
0.658946 0.806806 0.941527
0.757717 0.796719 0.923735
0.838865 0.790784 0.911833
0.0454108 0.811154 0.89752
0.075349 0.81207 0.898299
0.123339 0.82327 0.909468
0.306477 0.841886 0.925063
0.475792 0.880354 0.963378
0.601678 0.895018 0.973953
0.687556 0.897261 0.977981
0.769085 0.895262 0.981735
0.876997 0.885603 0.961486
0.0408942 0.852354 0.904082
0.0715343 0.853742 0.90544
0.125246 0.86511 0.915984
0.29424 0.881865 0.929015
0.491005 0.924727 0.968277
0.634852 0.944396 0.978347
0.721508 0.959228 0.993194
0.813581 0.972488 0.996262
0.923995 0.984085 0.993698
