tracker_LUT/LUT/filmlook_28.A049_12291751_S.cube
TITLE "Generated by Resolve"
LUT_3D_SIZE 5
0.00633249 0.0107118 0.0106355
0.102159 0.0127413 0.00820935
0.436271 0.092668 0.00564584
0.631449 0.137102 0.00640879
0.740108 0.152819 0.00680552
0.0126345 0.114687 0.046128
0.0917525 0.107912 0.0339971
0.386572 0.148135 0.00715648
0.624201 0.200687 0.0062562
0.742 0.219638 0.00636301
0.04654 0.374533 0.206485
0.112093 0.381201 0.211246
0.343481 0.373953 0.159304
0.689525 0.410773 0.000762951
0.80853 0.393317 0.00178531
0.0686809 0.636072 0.378515
0.158206 0.638239 0.376562
0.299855 0.641993 0.361334
0.670893 0.62446 0.242557
0.893019 0.651225 0.0019379
0.0497902 0.780591 0.454002
0.157885 0.780026 0.448753
0.2934 0.780392 0.436591
0.59646 0.801877 0.38381
0.900572 0.807279 0.270604
0.0133364 0.040177 0.112016
0.0927901 0.033051 0.105104
0.436347 0.0748455 0.0738079
0.633783 0.134478 0.0757458
0.739666 0.150744 0.0769818
0.0163577 0.127794 0.13135
0.0926223 0.12636 0.129824
0.399924 0.142306 0.0881208
0.629679 0.198383 0.075639
0.74464 0.217151 0.0747997
0.00155642 0.401282 0.305074
0.0632944 0.413947 0.314794
0.366003 0.395407 0.236011
0.69778 0.410498 0.0619059
0.811765 0.390204 0.0635538
0 0.64538 0.475532
0.0592508 0.655726 0.481315
0.293355 0.650736 0.436835
0.689219 0.638544 0.308309
0.898131 0.65037 0.0607462
0 0.786786 0.558755
0.0592508 0.79585 0.561196
0.287449 0.811154 0.536171
0.593942 0.813993 0.453162
0.908202 0.819089 0.345129
0.0724804 0.142123 0.309651
0.136843 0.136095 0.301808
0.336568 0.165682 0.345418
0.63682 0.130129 0.320638
0.784512 0.091722 0.260395
0.0790875 0.241169 0.356863
0.147768 0.240452 0.355627
0.342 0.245792 0.366705
0.63714 0.203952 0.334066
0.786877 0.176761 0.300938
0.0135653 0.456245 0.478828
0.0726787 0.47512 0.496376
0.401556 0.491081 0.496834
0.690196 0.456748 0.425086
0.821103 0.434836 0.383688
0 0.662623 0.581048
0.0592508 0.67744 0.595132
0.322026 0.734386 0.639841
0.690166 0.696773 0.520272
0.920211 0.685603 0.369635
0 0.804883 0.662303
0.0592508 0.816785 0.672465
0.307362 0.876051 0.716228
0.605295 0.867979 0.641932
0.906981 0.863081 0.572473
0.115969 0.217441 0.464271
0.194537 0.222278 0.467964
0.335576 0.232944 0.502113
0.512764 0.249729 0.514656
0.62594 0.257237 0.527398
0.128405 0.331868 0.530526
0.199664 0.335332 0.533867
0.373922 0.345769 0.556161
0.527016 0.330556 0.53698
0.639735 0.336996 0.550576
0.0924544 0.546334 0.678813
0.159792 0.557427 0.691066
0.433143 0.574823 0.702541
0.640085 0.565133 0.684169
0.779309 0.550546 0.666957
0.00613413 0.709117 0.746029
0.0673838 0.721096 0.758923
0.426001 0.754772 0.776333
0.686961 0.747189 0.753521
0.872862 0.737865 0.717784
0 0.826535 0.782193
0.0627451 0.840894 0.791257
0.44419 0.890867 0.825711
0.677424 0.925963 0.851316
0.899275 0.917464 0.806607
0.138109 0.259586 0.576104
0.241062 0.283894 0.600214
0.389013 0.298268 0.639612
0.489693 0.281361 0.615686
0.603357 0.289601 0.6224
0.151522 0.396078 0.66833
0.229114 0.399893 0.671061
0.418631 0.413031 0.687114
0.519936 0.376471 0.654795
0.621576 0.370977 0.646021
0.128267 0.586419 0.79588
0.208194 0.597421 0.807477
0.452262 0.624063 0.835309
0.639475 0.627161 0.84152
0.764294 0.62005 0.826062
0.0670634 0.742535 0.871672
0.141878 0.755199 0.884855
0.443824 0.803326 0.934905
0.658946 0.806806 0.941527
0.838865 0.790784 0.911833
0.0408942 0.852354 0.904082
0.125246 0.86511 0.915984
0.491005 0.924727 0.968277
0.721508 0.959228 0.993194
0.923995 0.984085 0.993698
