tracker_LUT/LUT/filmlook_28.A049_12291751_S.cube
TITLE "Generated by Resolve"
LUT_3D_SIZE 33
0.00633249 0.0107118 0.0106355
0.0137331 0.0107118 0.0106355
0.0216526 0.0106661 0.0105745
0.0314183 0.0104677 0.0102235
0.0423743 0.0103609 0.00979629
0.0544594 0.0104982 0.00943008
0.0678416 0.0108949 0.0091249
0.0830549 0.0115511 0.0087892
0.102159 0.0127413 0.00820935
0.130053 0.0155337 0.00726329
0.166857 0.0210117 0.00680552
0.209781 0.030045 0.00624094
0.256886 0.0425574 0.00604257
0.306004 0.0565042 0.00584421
0.353521 0.0699931 0.00564584
0.398108 0.0825513 0.0055848
0.436271 0.092668 0.00564584
0.472023 0.102159 0.00570687
0.502876 0.109819 0.00581369
0.531075 0.116548 0.0059205
0.555291 0.121981 0.00602731
0.576806 0.126467 0.00607309
0.596414 0.130449 0.00613413
0.614481 0.133989 0.00627146
0.631449 0.137102 0.00640879
0.647547 0.139818 0.00646983
0.662882 0.14229 0.00650034
0.677638 0.14464 0.0065156
0.691783 0.146838 0.0065156
0.705318 0.148898 0.00660716
0.717647 0.150484 0.00669871
0.729778 0.151934 0.00675975
0.740108 0.152819 0.00680552
0.00633249 0.0181125 0.0106355
0.0137331 0.0181125 0.0106355
0.0214694 0.0180819 0.0105898
0.0307317 0.0179294 0.0103151
0.0417639 0.0177768 0.00985733
0.0538796 0.0178836 0.00947585
0.0672923 0.0182498 0.00915541
0.0825818 0.0189212 0.00880446
0.101793 0.0200809 0.00822461
0.129976 0.0229038 0.00723278
0.166781 0.0283818 0.00680552
0.208957 0.037171 0.00624094
0.255375 0.0494545 0.00604257
0.30457 0.063447 0.00584421
0.352163 0.0769207 0.0056611
0.396963 0.0895705 0.0055848
0.435538 0.0998245 0.00564584
0.471504 0.109392 0.00570687
0.502571 0.117128 0.00581369
0.531014 0.123919 0.0059205
0.555291 0.129381 0.00602731
0.576913 0.133898 0.00607309
0.596582 0.137911 0.00613413
0.61471 0.141482 0.00627146
0.6318 0.14461 0.00640879
0.647974 0.147341 0.00648508
0.663386 0.149859 0.00650034
0.678203 0.152224 0.0065156
0.692363 0.154437 0.00653086
0.705974 0.156512 0.00662242
0.718227 0.158083 0.00669871
0.730404 0.159533 0.00677501
0.740124 0.16022 0.00680552
0.00650034 0.0263523 0.0113375
0.013901 0.0263371 0.0113222
0.0214237 0.0262303 0.0112306
0.0296178 0.025864 0.0108644
0.04094 0.0254826 0.0101625
0.0533303 0.0254063 0.00961318
0.0667124 0.0257115 0.00923171
0.0818952 0.0263218 0.00886549
0.100786 0.0274357 0.00830091
0.128542 0.0301213 0.00729381
0.165362 0.035523 0.00683604
0.207324 0.0441444 0.00627146
0.253498 0.05626 0.00605783
0.302754 0.0702831 0.00585946
0.350774 0.0838788 0.0056611
0.395865 0.0966049 0.00560006
0.434699 0.10695 0.00564584
0.47097 0.116625 0.00569162
0.502113 0.124376 0.00581369
0.530785 0.131258 0.0059205
0.55523 0.136767 0.00602731
0.57702 0.141344 0.00607309
0.59678 0.145388 0.00613413
0.615045 0.149004 0.00627146
0.632197 0.152132 0.00640879
0.648432 0.154894 0.00646983
0.66389 0.157427 0.00650034
0.678706 0.159808 0.0065156
0.692897 0.16202 0.00654612
0.706462 0.16408 0.00662242
0.71873 0.165652 0.00671397
0.730953 0.167102 0.00677501
0.739971 0.167575 0.00679026
0.00726329 0.0375677 0.0145266
0.0146792 0.0375982 0.0145418
0.0220951 0.0375067 0.0144808
0.029633 0.0371862 0.0141756
0.0407111 0.0365148 0.0131075
0.0532235 0.0360113 0.0118257
0.0665446 0.0358892 0.0107729
0.0811017 0.0362249 0.0102541
0.0987259 0.0369726 0.00961318
0.124498 0.0387732 0.00819409
0.159899 0.0431067 0.00726329
0.201724 0.0508125 0.00648508
0.248417 0.0624399 0.0061799
0.298421 0.0764477 0.00593576
0.34728 0.0902266 0.00570687
0.392584 0.103029 0.00563058
0.432059 0.113619 0.00567636
0.468925 0.123445 0.00570687
0.500694 0.131441 0.00582895
0.529778 0.138445 0.00593576
0.554574 0.14406 0.00604257
0.576547 0.148699 0.00610361
0.596506 0.152789 0.00614939
0.614878 0.156435 0.00628672
0.632136 0.159625 0.00642405
0.648463 0.162417 0.00650034
0.663966 0.164981 0.0065156
0.678798 0.167376 0.00653086
0.692988 0.169604 0.00657664
0.706386 0.171618 0.00663767
0.718822 0.173266 0.00672923
0.731014 0.174731 0.00679026
0.739605 0.175128 0.00682078
0.00848402 0.0513771 0.0198062
0.0158999 0.0514534 0.0198672
0.0233005 0.0514076 0.0198215
0.0306706 0.0512398 0.0196841
0.04094 0.0503243 0.0183261
0.0531319 0.0494545 0.0163424
0.0665751 0.0487678 0.0141756
0.0806134 0.0486763 0.0129702
0.0965286 0.0492714 0.0123445
0.118532 0.0500343 0.0105287
0.150256 0.0527352 0.00846876
0.189364 0.0581216 0.00724804
0.234348 0.0680247 0.00682078
0.283711 0.0808576 0.00637827
0.333425 0.0946822 0.00613413
0.379873 0.107546 0.0059968
0.421805 0.118837 0.00593576
0.46006 0.128832 0.00593576
0.494423 0.137636 0.00602731
0.525109 0.145052 0.00610361
0.551156 0.151064 0.00619516
0.573907 0.155901 0.00624094
0.594217 0.160037 0.0062562
0.613001 0.16379 0.00637827
0.630503 0.167086 0.00653086
0.647059 0.16997 0.0065919
0.662699 0.17258 0.00662242
0.677623 0.175006 0.00663767
0.691829 0.177264 0.00665293
0.70518 0.179309 0.00671397
0.717723 0.181064 0.00677501
0.729381 0.182483 0.00683604
0.73872 0.183139 0.00686656
0.00959792 0.0657054 0.0253452
0.0170138 0.0658122 0.0254215
0.0244144 0.0657969 0.0254063
0.0317998 0.065568 0.0252232
0.041062 0.0647288 0.0241398
0.0524147 0.0635843 0.0220798
0.0657969 0.0625467 0.0192721
0.0807507 0.061799 0.0162661
0.0964675 0.0623026 0.015198
0.115999 0.062974 0.0138857
0.144793 0.0642863 0.0102541
0.181033 0.0682383 0.00831617
0.223865 0.0759289 0.00755322
0.272007 0.0873426 0.00689708
0.32166 0.10042 0.0065919
0.368261 0.112825 0.00637827
0.410986 0.124239 0.0062562
0.449928 0.134295 0.00624094
0.486015 0.143572 0.00630198
0.518425 0.151522 0.00634775
0.546151 0.158038 0.00642405
0.569802 0.16318 0.00646983
0.590631 0.167407 0.00645457
0.61001 0.171267 0.00650034
0.627985 0.174777 0.00666819
0.64506 0.177813 0.00672923
0.661128 0.180529 0.00674449
0.676417 0.183047 0.00674449
0.691005 0.185412 0.00671397
0.704646 0.187549 0.00674449
0.717418 0.18941 0.00677501
0.728908 0.190814 0.00679026
0.73846 0.191577 0.00677501
0.0106813 0.0806287 0.0312047
0.0181125 0.0808423 0.0313726
0.0255283 0.0808118 0.0313573
0.0329137 0.0806439 0.03122
0.0415198 0.0798352 0.0302434
0.0517433 0.0787213 0.0285344
0.0640421 0.0775311 0.0260624
0.0792401 0.0762951 0.0222171
0.0968185 0.0761883 0.0186007
0.115465 0.0771649 0.0173648
0.142061 0.0782788 0.0137636
0.175509 0.0808576 0.0100099
0.21532 0.0863508 0.0083772
0.261585 0.0957504 0.00756847
0.310704 0.107347 0.00706493
0.357839 0.119142 0.00674449
0.401236 0.130343 0.00657664
0.44065 0.140368 0.0065156
0.477775 0.149767 0.00654612
0.511604 0.158145 0.00657664
0.541253 0.165194 0.00662242
0.566049 0.170733 0.00665293
0.587716 0.175219 0.0065919
0.607538 0.179156 0.00656138
0.626047 0.182788 0.00665293
0.643717 0.186069 0.00671397
0.660471 0.189029 0.00668345
0.676402 0.191745 0.00663767
0.691478 0.194232 0.00654612
0.705516 0.19649 0.00653086
0.718379 0.198383 0.00654612
0.730007 0.199832 0.00654612
0.739391 0.200565 0.00653086
0.01178 0.09691 0.038117
0.0192111 0.0971695 0.0383154
0.026627 0.0972152 0.0383459
0.0340276 0.0972 0.0383307
0.0421149 0.0965133 0.0374456
0.0514229 0.0952316 0.0357061
0.0626841 0.0937362 0.0334936
0.0771191 0.0920424 0.0299229
0.0940719 0.0911879 0.0255131
0.114672 0.0916762 0.0214542
0.14168 0.0935073 0.0179751
0.173007 0.095201 0.0123293
0.210178 0.0992447 0.00952163
0.253559 0.106661 0.00848402
0.301579 0.116655 0.00761425
0.348653 0.127321 0.00714122
0.392828 0.137896 0.00691234
0.432837 0.147509 0.00672923
0.470771 0.156863 0.00669871
0.505638 0.165408 0.00668345
0.536797 0.172854 0.00663767
0.562905 0.17879 0.00665293
0.585397 0.183536 0.00653086
0.605936 0.187686 0.00643931
0.624979 0.191394 0.00642405
0.643061 0.194797 0.00645457
0.660441 0.197955 0.00639353
0.67689 0.20087 0.00634775
0.692363 0.203525 0.00628672
0.706844 0.205905 0.00631724
0.719722 0.207813 0.00640879
0.731594 0.209308 0.00640879
0.74052 0.209918 0.00639353
0.0126345 0.114687 0.046128
0.0200656 0.115084 0.0464332
0.0274968 0.115312 0.0466163
0.0349126 0.115282 0.0465858
0.0427405 0.114778 0.0459144
0.0514687 0.11342 0.0441291
0.0616465 0.111879 0.0420081
0.0754559 0.109575 0.0387427
0.0917525 0.107912 0.0339971
0.11078 0.107332 0.029099
0.140169 0.108873 0.0231937
0.172137 0.111254 0.0174868
0.207523 0.114382 0.0121004
0.248753 0.12047 0.0101472
0.295262 0.128862 0.00857557
0.341894 0.138598 0.00779736
0.386572 0.148135 0.00715648
0.427405 0.156832 0.00679026
0.466194 0.165743 0.00662242
0.50193 0.17409 0.00653086
0.533867 0.181613 0.00648508
0.560708 0.187655 0.00648508
0.583795 0.192569 0.00639353
0.604776 0.196887 0.00630198
0.624201 0.200687 0.0062562
0.642512 0.204089 0.00630198
0.660258 0.207309 0.00628672
0.677043 0.210346 0.00627146
0.692821 0.213077 0.0062562
0.707729 0.215579 0.00630198
0.720851 0.217502 0.00639353
0.733394 0.219135 0.00636301
0.742 0.219638 0.00636301
0.0130617 0.135256 0.0562295
0.0204776 0.135912 0.056733
0.0278935 0.136233 0.0569772
0.0353094 0.136461 0.0571603
0.0429389 0.136309 0.0568551
0.0512398 0.135256 0.0553445
0.0608835 0.133837 0.0532998
0.0741741 0.131991 0.0509194
0.0892042 0.129473 0.0464027
0.106615 0.127718 0.0410925
0.133639 0.128176 0.0344396
0.168841 0.131014 0.0274815
0.207477 0.134874 0.0180209
0.248554 0.139757 0.0119936
0.293538 0.146471 0.00949111
0.338689 0.154757 0.00856031
0.382879 0.162661 0.00756847
0.423545 0.170077 0.00706493
0.462577 0.177462 0.00677501
0.498817 0.184802 0.00660716
0.531395 0.191699 0.00653086
0.558785 0.197421 0.0065156
0.582086 0.20206 0.00643931
0.603586 0.206455 0.00633249
0.623392 0.210376 0.00631724
0.6421 0.21384 0.00633249
0.660197 0.217044 0.00631724
0.677409 0.220127 0.00628672
0.693553 0.222965 0.0062562
0.708812 0.225559 0.00631724
0.722377 0.227588 0.00640879
0.735653 0.229404 0.00636301
0.74406 0.229862 0.00636301
0.0140383 0.159075 0.0694438
0.0215 0.160037 0.070222
0.0289464 0.160678 0.0707561
0.0363775 0.161089 0.0710765
0.0438697 0.161288 0.0711528
0.0519112 0.160342 0.0698405
0.0609598 0.159213 0.0680705
0.0734417 0.157794 0.0663005
0.0874037 0.155825 0.0632181
0.102739 0.153201 0.0581521
0.125521 0.152041 0.051667
0.159136 0.153506 0.0442664
0.203281 0.158328 0.0324254
0.249454 0.164065 0.0182498
0.296284 0.170275 0.0109102
0.340551 0.176654 0.009308
0.384024 0.183383 0.0081178
0.423453 0.188785 0.00741588
0.461845 0.194354 0.00700389
0.497627 0.199695 0.00679026
0.530327 0.204868 0.00668345
0.558267 0.209522 0.00663767
0.581582 0.213214 0.00656138
0.603021 0.216922 0.00645457
0.623087 0.220691 0.00640879
0.642115 0.22417 0.00640879
0.660609 0.22742 0.00637827
0.678141 0.230503 0.00633249
0.694682 0.233417 0.00628672
0.710292 0.236149 0.00633249
0.724407 0.238346 0.00637827
0.738369 0.24036 0.00633249
0.74699 0.240909 0.00633249
0.0150912 0.186633 0.0854963
0.0225528 0.1879 0.0865034
0.0300145 0.188968 0.0873579
0.0374151 0.190005 0.0881819
0.0447852 0.190723 0.0887312
0.0528115 0.190005 0.0877089
0.0615854 0.188876 0.0860304
0.0732433 0.187335 0.0842145
0.0869001 0.185657 0.0819867
0.101259 0.183429 0.078233
0.119615 0.180819 0.0722057
0.147234 0.179736 0.0646372
0.190967 0.183383 0.0531472
0.244587 0.1906 0.0354314
0.299351 0.198947 0.0167544
0.34641 0.205707 0.0103456
0.38996 0.210956 0.00848402
0.429221 0.215564 0.00746166
0.466926 0.219669 0.00691234
0.50222 0.223194 0.00660716
0.534218 0.226047 0.00645457
0.562081 0.228367 0.00640879
0.585168 0.229969 0.00634775
0.606012 0.231754 0.00631724
0.625528 0.234073 0.00633249
0.644312 0.236759 0.00633249
0.662715 0.239582 0.00628672
0.680369 0.24242 0.00622568
0.6972 0.245289 0.00614939
0.713085 0.248051 0.00619516
0.727764 0.25037 0.00613413
0.742168 0.252613 0.00604257
0.751614 0.253574 0.00598154
0.0151064 0.21886 0.104967
0.0228428 0.220981 0.106676
0.0305486 0.222827 0.108171
0.0382696 0.224308 0.109392
0.0459754 0.225589 0.11043
0.0542458 0.225299 0.109926
0.0632029 0.224109 0.1084
0.0744335 0.222843 0.106783
0.0878614 0.221393 0.104997
0.102174 0.219287 0.102052
0.118486 0.216724 0.0969406
0.139864 0.214115 0.0897841
0.175128 0.213931 0.0800946
0.229862 0.219745 0.0658732
0.294759 0.229892 0.0402228
0.352255 0.239643 0.0162661
0.399496 0.245228 0.00807202
0.438712 0.248432 0.00706493
0.476005 0.251743 0.00662242
0.51107 0.254383 0.00627146
0.542565 0.255634 0.0059205
0.570184 0.256077 0.00587472
0.593088 0.255375 0.00579843
0.613596 0.25478 0.00578317
0.632532 0.254719 0.00582895
0.650568 0.255268 0.00584421
0.668315 0.256458 0.00578317
0.685573 0.258198 0.00570687
0.702098 0.260151 0.00561532
0.718181 0.262776 0.00564584
0.73312 0.265126 0.0055848
0.747829 0.267567 0.00550851
0.75787 0.268788 0.00547799
0.0200504 0.258 0.130495
0.0278172 0.260395 0.132387
0.0355535 0.262654 0.134173
0.043183 0.264317 0.13547
0.0507515 0.265858 0.13666
0.058732 0.265888 0.136461
0.0674449 0.264775 0.135119
0.0780346 0.263569 0.133639
0.0907607 0.261952 0.131823
0.105364 0.259876 0.129534
0.120607 0.257435 0.125658
0.13843 0.254673 0.11928
0.16527 0.252445 0.110353
0.209903 0.253391 0.0998703
0.277211 0.262028 0.0822614
0.348486 0.274189 0.0448768
0.410071 0.285359 0.0124514
0.451865 0.287831 0.00605783
0.488518 0.289647 0.00547799
0.522988 0.291096 0.00517281
0.553933 0.291463 0.00502022
0.581491 0.290929 0.00495918
0.604456 0.288991 0.00492866
0.624872 0.286732 0.00497444
0.643549 0.284642 0.00509651
0.661143 0.283101 0.00517281
0.678279 0.282322 0.00512703
0.694652 0.282124 0.00517281
0.710002 0.282032 0.00537118
0.725444 0.282902 0.00541695
0.74023 0.284245 0.0053254
0.75491 0.286229 0.00518807
0.76556 0.287572 0.00511177
0.0260624 0.297795 0.156252
0.0341192 0.300191 0.15819
0.0421302 0.302388 0.159976
0.049958 0.304067 0.161349
0.0576791 0.305531 0.162539
0.0654917 0.305623 0.162524
0.0739147 0.304875 0.161654
0.0831922 0.303761 0.160418
0.0945907 0.302281 0.158831
0.109117 0.300313 0.156832
0.125124 0.297856 0.153887
0.140887 0.29543 0.149371
0.162966 0.293492 0.141741
0.198215 0.292058 0.13048
0.251164 0.294331 0.120058
0.326925 0.304723 0.0966049
0.406439 0.319646 0.0466011
0.465217 0.329946 0.0115511
0.502571 0.331121 0.00483711
0.537194 0.331655 0.00296025
0.568002 0.331777 0.00321965
0.595376 0.330846 0.00378424
0.61825 0.328664 0.00401312
0.638941 0.326452 0.00404364
0.658152 0.323796 0.00396735
0.676051 0.32137 0.00387579
0.692607 0.318822 0.00396735
0.707973 0.316274 0.00419623
0.722789 0.314092 0.00436408
0.737575 0.312383 0.00434882
0.751553 0.311376 0.0043946
0.765393 0.311467 0.0043946
0.776257 0.312337 0.00434882
0.0359655 0.335927 0.18114
0.0443275 0.338476 0.183185
0.0525826 0.340749 0.185031
0.0606851 0.342489 0.186435
0.0687114 0.343954 0.18761
0.0767681 0.344228 0.187732
0.0851911 0.343877 0.187243
0.0939956 0.343084 0.186328
0.103334 0.341863 0.185046
0.1149 0.340246 0.183413
0.130053 0.338033 0.18114
0.145708 0.335821 0.177798
0.163958 0.334188 0.172641
0.19411 0.333043 0.162432
0.234562 0.331746 0.150713
0.29546 0.334936 0.140093
0.379782 0.347112 0.109606
0.459525 0.363027 0.0527657
0.515969 0.37322 0.0140383
0.552056 0.374701 0.00337224
0.58265 0.374517 0.00138857
0.610315 0.373785 0.00155642
0.633768 0.372015 0.00170901
0.654841 0.36994 0.00192264
0.674449 0.36733 0.00238041
0.692378 0.364599 0.00267033
0.708751 0.361746 0.00288396
0.724147 0.358663 0.00303655
0.73904 0.355703 0.00297551
0.753201 0.352331 0.00292973
0.766278 0.349447 0.00314336
0.779217 0.347417 0.00329595
0.790249 0.347829 0.00328069
0.04654 0.374533 0.206485
0.0547799 0.377111 0.208576
0.062974 0.379538 0.210559
0.0709544 0.381247 0.211963
0.0788891 0.382757 0.213199
0.0867781 0.383108 0.213413
0.0949722 0.382666 0.212879
0.103395 0.382055 0.212161
0.112093 0.381201 0.211246
0.122225 0.380011 0.209995
0.135653 0.377997 0.207996
0.151614 0.375708 0.205249
0.16791 0.374075 0.20148
0.193332 0.373236 0.194064
0.227741 0.371969 0.18201
0.274723 0.37084 0.170748
0.343481 0.373953 0.159304
0.430762 0.387717 0.121813
0.510094 0.405509 0.0578012
0.56463 0.416434 0.0171359
0.597375 0.417578 0.00317388
0.623285 0.415869 0.000335698
0.647349 0.414618 0.000183108
0.669017 0.412757 0.000335698
0.689525 0.410773 0.000762951
0.708263 0.408469 0.00111391
0.725444 0.406317 0.00114443
0.741543 0.404135 0.00114443
0.756771 0.401984 0.00108339
0.771176 0.399619 0.00138857
0.784451 0.396597 0.00178531
0.79736 0.39382 0.0018616
0.80853 0.393317 0.00178531
0.0572824 0.412848 0.231693
0.065507 0.415442 0.233814
0.0736706 0.417807 0.235767
0.0816358 0.419501 0.237171
0.0894484 0.420798 0.238224
0.0973678 0.421424 0.238682
0.105409 0.420981 0.238178
0.113634 0.420493 0.237583
0.121798 0.419821 0.236866
0.130526 0.418753 0.235782
0.141649 0.417365 0.234348
0.157534 0.415473 0.232334
0.174166 0.414237 0.229603
0.19556 0.413886 0.224674
0.225803 0.413306 0.214771
0.266636 0.412055 0.200473
0.320851 0.410529 0.19089
0.39295 0.412573 0.178393
0.480262 0.428031 0.132998
0.556924 0.446204 0.0665599
0.609339 0.457893 0.021622
0.637751 0.458061 0.00543221
0.659037 0.455146 6.10361e-05
0.680949 0.453513 4.57771e-05
0.701747 0.451804 3.0518e-05
0.721401 0.450309 1.5259e-05
0.739269 0.448646 4.57771e-05
0.75613 0.446906 0.000106813
0.772457 0.44538 0.000167849
0.787625 0.443961 0.000289921
0.801907 0.442283 0.000564584
0.815213 0.439918 0.000701915
0.826688 0.439033 0.000686656
0.0667277 0.450294 0.256413
0.074815 0.452659 0.258366
0.082887 0.454902 0.260227
0.0907454 0.456428 0.261494
0.0986038 0.457877 0.262684
0.10663 0.458244 0.262898
0.115023 0.457832 0.262348
0.123537 0.457481 0.261845
0.131777 0.457069 0.261341
0.140246 0.456489 0.260685
0.150118 0.45565 0.259724
0.163638 0.454429 0.25835
0.180377 0.453742 0.256794
0.199908 0.453971 0.253574
0.226612 0.454215 0.246952
0.264073 0.453819 0.233799
0.311208 0.452277 0.218753
0.36936 0.449897 0.211368
0.443107 0.45185 0.193835
0.525292 0.466102 0.14548
0.598184 0.484031 0.0775769
0.651377 0.497353 0.0275883
0.674403 0.496025 0.00923171
0.691325 0.491798 0.00170901
0.71194 0.490089 0.000198367
0.732403 0.488899 0
0.750866 0.487633 0
0.767895 0.48632 1.5259e-05
0.784619 0.4851 3.0518e-05
0.800702 0.484062 3.0518e-05
0.815961 0.482902 6.10361e-05
0.830381 0.481666 7.62951e-05
0.842725 0.480949 7.62951e-05
0.0738689 0.485115 0.27921
0.0817121 0.48719 0.280949
0.0895247 0.489189 0.282612
0.0972305 0.490578 0.283772
0.104906 0.491783 0.284794
0.113283 0.492317 0.285084
0.12253 0.491707 0.28426
0.131838 0.491264 0.283528
0.14023 0.491005 0.283116
0.148348 0.490318 0.282383
0.15729 0.489784 0.281727
0.168872 0.489036 0.280797
0.185885 0.488762 0.280003
0.20415 0.489982 0.278553
0.228962 0.491203 0.273991
0.263676 0.491905 0.264088
0.30753 0.491417 0.248356
0.358373 0.489906 0.23595
0.421103 0.487282 0.229007
0.490776 0.488548 0.206058
0.565438 0.500328 0.157473
0.633829 0.516747 0.087953
0.682506 0.529641 0.0422522
0.706035 0.529824 0.0213931
0.72256 0.525673 0.00686656
0.741283 0.523644 0.00137331
0.759793 0.522301 1.5259e-05
0.777249 0.521187 0
0.79443 0.520348 0
0.811231 0.519448 0
0.827253 0.518654 0
0.842481 0.517968 0
0.855756 0.517403 0
0.0777905 0.517205 0.300084
0.0854353 0.519158 0.301747
0.09308 0.521096 0.303395
0.100664 0.522484 0.30457
0.108095 0.523445 0.305409
0.116655 0.523964 0.305669
0.127199 0.523354 0.304646
0.138186 0.522789 0.303578
0.147707 0.522393 0.302861
0.156329 0.522026 0.302312
0.165026 0.521385 0.301579
0.175174 0.520867 0.300862
0.19028 0.520897 0.300511
0.208789 0.522438 0.300084
0.231525 0.524895 0.297688
0.264088 0.526741 0.29044
0.305608 0.527199 0.275959
0.352682 0.526711 0.260441
0.408286 0.524392 0.25301
0.468406 0.520348 0.244099
0.532692 0.520378 0.217273
0.601663 0.53051 0.1664
0.66363 0.545724 0.104372
0.709651 0.558236 0.0575418
0.737148 0.561425 0.0300298
0.752453 0.557473 0.0146944
0.768063 0.554482 0.00511177
0.784649 0.552789 1.5259e-05
0.80235 0.551965 1.5259e-05
0.819577 0.550988 0
0.836057 0.550118 0
0.851774 0.549538 0
0.865873 0.549157 0
0.0790723 0.547509 0.319768
0.0865339 0.54934 0.321355
0.0938277 0.551202 0.322988
0.101137 0.552499 0.324117
0.108461 0.553536 0.325032
0.117418 0.553903 0.325124
0.129397 0.553292 0.323888
0.141924 0.552544 0.322438
0.15285 0.552117 0.321508
0.16257 0.551705 0.320775
0.171633 0.550973 0.31986
0.181125 0.550423 0.319112
0.194247 0.550454 0.318776
0.213077 0.551995 0.318883
0.234257 0.55491 0.317723
0.264897 0.557748 0.312673
0.303792 0.55874 0.300694
0.349401 0.558648 0.283253
0.400244 0.557137 0.272404
0.454795 0.553231 0.267277
0.510887 0.547982 0.256153
0.569558 0.547051 0.224979
0.633112 0.557 0.1776
0.690105 0.571679 0.1178
0.735714 0.584955 0.071809
0.766354 0.590723 0.0435645
0.780606 0.587228 0.0277104
0.794034 0.583597 0.0111849
0.808972 0.581003 0.000686656
0.826398 0.579644 1.5259e-05
0.843198 0.578531 0
0.859098 0.577554 0
0.87364 0.576989 0
0.0775921 0.577478 0.339529
0.0844892 0.579477 0.341314
0.0914473 0.581231 0.342885
0.0984665 0.582605 0.344106
0.105592 0.583673 0.345052
0.115236 0.583963 0.345006
0.129809 0.583154 0.343313
0.143862 0.582315 0.341619
0.155886 0.581781 0.340459
0.16701 0.581155 0.339345
0.177371 0.580438 0.338247
0.187442 0.57969 0.337179
0.19942 0.57937 0.336507
0.217151 0.580606 0.336751
0.237186 0.583581 0.336431
0.265843 0.586892 0.332845
0.302602 0.588495 0.323278
0.346731 0.588724 0.306447
0.395407 0.587564 0.291508
0.445762 0.584482 0.285496
0.497475 0.579446 0.280232
0.549523 0.573358 0.266987
0.603326 0.572198 0.231571
0.662882 0.582895 0.186053
0.717006 0.597757 0.131487
0.76202 0.61146 0.0891585
0.794369 0.618708 0.0584573
0.807706 0.615335 0.0383154
0.819989 0.611017 0.0179904
0.833524 0.607034 0.00340276
0.849714 0.605219 0.000427253
0.865614 0.603876 0
0.880339 0.602792 0
0.0721294 0.607721 0.359899
0.0791638 0.609537 0.361517
0.0862593 0.6112 0.362997
0.0934462 0.612329 0.363989
0.100816 0.613428 0.364965
0.110887 0.613626 0.364797
0.128466 0.61239 0.362448
0.144106 0.611582 0.360647
0.157702 0.611124 0.35935
0.170016 0.610468 0.358022
0.181796 0.609628 0.356619
0.193042 0.608606 0.355123
0.205188 0.608225 0.354284
0.220935 0.608881 0.354177
0.240497 0.611383 0.35404
0.265888 0.614771 0.351843
0.300832 0.616846 0.344274
0.344335 0.61735 0.328771
0.390967 0.616739 0.310964
0.438911 0.614359 0.301411
0.487724 0.610147 0.298253
0.536843 0.603952 0.291783
0.586084 0.598093 0.27509
0.63714 0.598184 0.236698
0.693095 0.609522 0.19588
0.744427 0.624186 0.146639
0.786923 0.636774 0.10663
0.820569 0.644892 0.073991
0.833677 0.641276 0.0518654
0.845273 0.635935 0.0284276
0.857877 0.631632 0.00959792
0.872084 0.629084 0.00138857
0.886671 0.627619 0
0.0686809 0.636072 0.378515
0.0759136 0.63772 0.379965
0.0831922 0.639155 0.381231
0.090486 0.640146 0.382116
0.0984817 0.640848 0.38265
0.109194 0.640894 0.3823
0.126772 0.639765 0.380072
0.142931 0.639033 0.378317
0.158206 0.638239 0.376562
0.172305 0.637491 0.374914
0.185168 0.636515 0.373236
0.197635 0.635416 0.371527
0.210254 0.634546 0.370047
0.225437 0.634562 0.36939
0.24332 0.636454 0.369223
0.265904 0.639612 0.367849
0.299855 0.641993 0.361334
0.342306 0.643214 0.348013
0.387961 0.643091 0.329885
0.433234 0.641718 0.316823
0.480842 0.63856 0.311635
0.527199 0.633371 0.310353
0.574701 0.627329 0.300999
0.62179 0.622538 0.278767
0.670893 0.62446 0.242557
0.723644 0.636103 0.204929
0.771527 0.649363 0.158648
0.810605 0.660365 0.120912
0.844907 0.668391 0.0889906
0.857877 0.663996 0.0644846
0.869368 0.658915 0.0377203
0.88072 0.654368 0.0149538
0.893019 0.651225 0.0019379
0.0660868 0.66244 0.39527
0.0732128 0.664027 0.396674
0.0804303 0.66508 0.397589
0.0876783 0.666087 0.398474
0.0962692 0.66656 0.398764
0.108736 0.666392 0.398062
0.125826 0.665446 0.396109
0.141268 0.664851 0.394583
0.156863 0.66424 0.392966
0.172976 0.663218 0.390906
0.187518 0.661982 0.388815
0.20116 0.660563 0.386648
0.21474 0.659342 0.384665
0.229587 0.658701 0.383322
0.24593 0.659449 0.382635
0.265858 0.662058 0.381476
0.299367 0.664622 0.375677
0.340032 0.666102 0.364126
0.385046 0.666484 0.346807
0.429374 0.666209 0.331914
0.474937 0.664225 0.324056
0.520745 0.660349 0.322576
0.566522 0.655177 0.319585
0.612314 0.650309 0.306767
0.657649 0.64741 0.281743
0.704799 0.650645 0.246845
0.754391 0.661357 0.210254
0.79939 0.673152 0.164034
0.836728 0.682765 0.129229
0.86566 0.68719 0.097734
0.880827 0.684306 0.0683757
