tracker_LUT/LUT/quraqqq_12.A032_01050554_C002.cube
TITLE "Generated by Resolve"
LUT_3D_SIZE 17
0 0 0
0.0163577 0 0
0.0327764 0.000350958 0.000350958
0.0460822 0.00657664 0.00297551
0.0706493 0.00634775 0.00196841
0.101946 0.0037995 0
0.143252 0 0
0.199756 0 0
0.274174 0 0
0.359762 0 0
0.447486 0 0
0.540505 0 0
0.628229 0 0
0.70071 0 0
0.757671 0 0
0.804334 0 0
0.845716 0 0
0.000732433 0.0151369 4.57771e-05
0.0154574 0.015198 0
0.0323186 0.0161135 0
0.0530098 0.0146639 0
0.0707866 0.012665 0.00103761
0.102449 0.00929274 0
0.144213 0.00347906 0
0.202213 0 0
0.277958 0 0
0.365148 0 0
0.453208 0 0
0.546944 0 0
0.633433 0 0
0.70486 0 0
0.76112 0 0
0.80737 0 0
0.848844 0 0
0.00137331 0.0291295 0
0.0148928 0.0288701 0
0.0298009 0.0293889 0
0.0532998 0.0303197 0
0.0718395 0.0247959 0
0.103655 0.0223392 0
0.147173 0.0163272 0
0.209186 0.00691234 0
0.289647 0 0
0.379126 0 0
0.46952 0 0
0.562524 0 0
0.646922 0 0
0.716121 0 0
0.77116 0 0
0.817212 0 0
0.8589 0 0
0 0.0443122 0
0.0129397 0.0444648 0
0.0276799 0.0450294 0
0.0470741 0.0462043 0
0.0717174 0.0436255 0
0.1066 0.0410925 0
0.153735 0.035874 0
0.220493 0.0269322 0
0.305211 0.0140078 0
0.395743 0.000808728 0
0.486702 0 0
0.579263 0 0
0.662089 0 0
0.730465 0 0
0.785626 0 0
0.832959 0 0
0.876081 0 0
0 0.0644541 0
0.00726329 0.0658274 0
0.023331 0.0678416 0
0.0426337 0.0699016 0
0.0703746 0.0702983 0
0.107225 0.0690471 0
0.156573 0.0646983 0
0.225986 0.0567483 0
0.312291 0.0447852 0
0.403128 0.0330816 0
0.495872 0.0221561 0
0.59089 0.0129091 0
0.675654 0.00782788 0
0.745953 0.00910964 0
0.803815 0.0157931 0
0.853742 0.0276646 0
0.899977 0.0430304 0
0 0.0923323 0
0.00135805 0.0952773 0
0.0183108 0.0991836 0
0.0385443 0.103243 0
0.0676432 0.104982 0
0.105241 0.105577 0
0.156405 0.102678 0
0.227146 0.0959793 0
0.315984 0.0858473 0
0.410239 0.0765698 0
0.506035 0.0682078 0
0.603311 0.0617685 0
0.691554 0.0595712 0
0.766018 0.0644083 0
0.827176 0.0746014 0
0.880522 0.0899214 0
0.92961 0.108232 0.00166323
0 0.12987 0
0 0.134051 0
0.00784314 0.139895 0
0.0285954 0.146227 0
0.0593881 0.150149 0
0.0995193 0.15314 0
0.152361 0.153368 0
0.226307 0.149508 0
0.3178 0.141573 0
0.414878 0.134615 0
0.514961 0.129793 0
0.616709 0.12697 0
0.708995 0.12871 0
0.786542 0.136828 0
0.850843 0.149798 0
0.906661 0.167788 0.00816358
0.956771 0.187472 0.0269627
0 0.179095 0
0 0.185183 0
0 0.194064 0
0.010956 0.2038 0
0.0441444 0.210864 0
0.0873426 0.217273 0
0.143679 0.220691 0
0.219806 0.221408 0
0.315877 0.21706 0
0.417655 0.213687 0
0.520211 0.210773 0
0.625757 0.211444 0
0.720958 0.215518 0
0.800626 0.225162 0
0.8663 0.239658 0.00340276
0.921843 0.257465 0.0207218
0.971328 0.276539 0.0391699
0 0.244251 0
0 0.252583 0
0 0.264942 0
0 0.278614 0
0.0250248 0.289509 0
0.07187 0.30013 0
0.132235 0.307668 0
0.212222 0.312078 0
0.309957 0.312001 0
0.415412 0.311406 0
0.52076 0.310185 0
0.626871 0.310552 0
0.722118 0.313466 0
0.802976 0.324147 0
0.868025 0.337407 0.00131228
0.922362 0.353124 0.0179294
0.971405 0.371908 0.0363317
0 0.324346 0
0 0.334813 0
0 0.350744 0
0 0.368368 0
0.015259 0.382925 0
0.065095 0.396933 0
0.127749 0.407248 0
0.209934 0.413703 0
0.309575 0.415244 0
0.413825 0.416022 0
0.519783 0.414908 0
0.626017 0.414405 0
0.720806 0.415991 0
0.799603 0.423178 0
0.865507 0.436484 0
0.921401 0.453468 0.0132448
0.971374 0.472343 0.0324865
0 0.417777 0
0 0.429999 0
0 0.448615 0
0 0.468788 0
0.0136416 0.485191 0
0.064332 0.500557 0
0.127169 0.511604 0
0.209018 0.518151 0
0.308309 0.518898 0
0.41178 0.518654 0
0.516686 0.519158 0
0.623392 0.518502 0
0.719951 0.520821 0
0.799954 0.528374 0
0.865339 0.540139 0
0.920073 0.554543 0.00550851
0.970275 0.573571 0.0273289
0 0.521233 0
0 0.533761 0
0 0.552941 0
0 0.573266 0
0.0135653 0.58996 0
0.0629435 0.603952 0
0.124834 0.614496 0
0.20647 0.621302 0
0.306538 0.62295 0
0.411734 0.623545 0
0.517281 0.624628 0
0.622843 0.625071 0
0.720226 0.628031 0
0.799695 0.634104 0
0.864424 0.644556 0
0.917861 0.657084 0.00311284
0.964904 0.671504 0.0168002
0 0.624384 0
0 0.635767 0
0 0.653452 0
0 0.672953 0
0.0205997 0.68983 0
0.0709544 0.70486 0
0.134157 0.717266 0
0.215442 0.723812 0
0.315465 0.725689 0
0.420844 0.725948 0
0.526299 0.726085 0
0.630518 0.725307 0
0.725292 0.727504 0
0.803265 0.731716 0
0.866178 0.73991 0
0.916884 0.749172 0.00202945
0.960922 0.760067 0.0126192
0 0.721111 0
0 0.732113 0
0 0.74995 0
0.00257877 0.76965 0
0.0447852 0.786664 0
0.09514 0.801663 0
0.157824 0.813642 0
0.237949 0.819486 0.000106813
0.337407 0.8206 0.000823987
0.440757 0.818708 0
0.544366 0.816663 0
0.646616 0.813169 0
0.738262 0.812253 0
0.812314 0.813916 0
0.872038 0.818769 0
0.919676 0.824765 0.00492866
0.960739 0.832227 0.0123445
0 0.814755 0
0 0.825437 0
0.00556954 0.842893 0
0.0388952 0.861036 0
0.0803235 0.876875 0.00367742
0.129381 0.890501 0.0170291
0.190005 0.900633 0.0268406
0.267689 0.904356 0.0305486
0.364553 0.902724 0.0287022
0.465003 0.897856 0.0239261
0.565484 0.892607 0.0184939
0.6645 0.885649 0.0116579
0.753414 0.881102 0.00691234
0.824109 0.879667 0.00541695
0.8804 0.88188 0.00724804
0.92546 0.885115 0.0108186
0.963836 0.889784 0.0155184
0.00451667 0.902876 0
0.0204318 0.912337 0
0.0480354 0.927855 0.0135195
0.0798962 0.943755 0.0289464
0.119585 0.957656 0.0425879
0.165377 0.967971 0.0529183
0.222736 0.974899 0.0596933
0.29688 0.975448 0.0602731
0.390249 0.970428 0.0551308
0.487449 0.962432 0.0472114
0.585138 0.953979 0.0386816
0.681392 0.944106 0.0289158
0.767849 0.936553 0.0212711
0.836164 0.932326 0.0170748
0.889708 0.931899 0.0164187
0.931914 0.93315 0.0176089
0.968277 0.935531 0.0200351
0.0488899 0.981994 0.0331884
0.0632029 0.989654 0.0408026
0.0882277 1 0.053193
0.117205 1 0.0658274
0.153582 1 0.0762493
0.196155 1 0.0834363
0.250462 1 0.0871443
0.321477 1 0.0847486
0.411765 1 0.0767224
0.506249 1 0.0661173
0.601221 1 0.0549325
0.695186 0.991485 0.04271
0.779492 0.98146 0.032639
0.845792 0.975067 0.0263066
0.89749 0.972549 0.0236515
0.937697 0.972198 0.0231937
0.972244 0.973342 0.0241398
0.00158694 0.00224308 0.0142061
0.0166323 4.57771e-05 0.0150912
0.0328679 0.000366217 0.0155032
0.0536202 0 0.0141299
0.071458 0.00236515 0.00996414
0.102663 0 0.00416571
0.143709 0 0
0.199268 0 0
0.272923 0 0
0.356435 0 0
0.444221 0 0
0.536156 0 0
0.625025 0 0
0.697673 0 0
0.755505 0 0
0.802121 0 0
0.843412 0 0
0 0.0151217 0.0140841
0.0148775 0.0149844 0.01355
0.0323339 0.0160678 0.014435
0.0530098 0.0145418 0.0128786
0.0712444 0.0125734 0.00900282
0.102434 0.00979629 0.00631724
0.144625 0.00402838 0
0.202701 0 0
0.279438 0 0
0.366644 0 0
0.455238 0 0
0.548257 0 0
0.635218 0 0
0.705989 0 0
0.762341 0 0
0.808255 0 0
0.850004 0 0
0 0.0290837 0.013611
0.0143587 0.0287785 0.0126955
0.0298772 0.0293431 0.0129397
0.0535439 0.0304417 0.0128786
0.0846418 0.0271 0.00943008
0.103899 0.0226902 0.0065919
0.148074 0.0167239 0.000350958
0.209995 0.00732433 0
0.291234 0 0
0.380636 0 0
0.471702 0 0
0.563928 0 0
0.648402 0 0
0.717037 0 0
0.772244 0 0
0.818082 0 0
0.860044 0 0
0 0.044358 0.0108644
0.0121157 0.0444648 0.00996414
0.0278172 0.0453193 0.0115053
0.0475624 0.0464942 0.0113375
0.0869001 0.0498817 0.0106508
0.107256 0.0416266 0.00805676
0.1552 0.0366064 0.00285344
0.22211 0.0275273 0
0.307469 0.0146029 0
0.397009 0.00137331 0
0.488731 0 0
0.580804 0 0
0.663722 0 0
0.731533 0 0
0.786908 0 0
0.833921 0 0
0.877363 0 0
0 0.0646067 0.00354009
0.00587472 0.0660716 0.00292973
0.0236362 0.0686198 0.00637827
0.0432746 0.0707103 0.0090486
0.0752117 0.0735332 0.00891127
0.108537 0.0700999 0.00868238
0.158953 0.0660716 0.00459297
0.227832 0.0576028 0
0.314931 0.0458076 0
0.405051 0.0340581 0
0.49836 0.0232395 0
0.592477 0.0138552 0
0.677546 0.00918593 0
0.747326 0.0103151 0
0.805386 0.01738 0
0.854948 0.0289921 0
0.901473 0.04477 0
0 0.0923934 0
0 0.0953536 0
0.0183871 0.100298 0
0.0392004 0.104479 0.0043946
0.0689708 0.106752 0.00666819
0.10663 0.10692 0.00560006
0.159197 0.104677 0.00500496
0.230167 0.0977798 0
0.319844 0.0878309 0
0.412757 0.0781262 0
0.509178 0.0700694 0
0.605661 0.063386 0
0.694011 0.0615091 0
0.76759 0.0659495 0
0.829114 0.0766918 0
0.881987 0.0915999 0
0.931289 0.110216 0.00614939
0 0.129503 0
0 0.132921 0
0.0071107 0.140887 0
0.0290074 0.147799 0
0.0608682 0.152819 0
0.101228 0.155413 0.00077821
0.154955 0.155886 0
0.229847 0.152239 0
0.322866 0.145159 0
0.419333 0.138079 0
0.519478 0.133089 0
0.619821 0.129564 0
0.712169 0.13167 0
0.788739 0.139239 0
0.853056 0.152499 0
0.908232 0.169787 0.0133974
0.958434 0.189761 0.0317998
0 0.177874 0
0 0.181964 0
0 0.193332 0
0.0106966 0.205371 0
0.0454261 0.214328 0
0.0895399 0.220722 0
0.146731 0.224704 0
0.222889 0.224323 0
0.321401 0.221942 0
0.422965 0.218647 0
0.52668 0.216663 0
0.63003 0.215579 0
0.724849 0.21973 0
0.803326 0.228473 0
0.868666 0.243046 0.010956
0.923613 0.260197 0.0269474
0.972869 0.279118 0.0444648
0 0.241535 0
0 0.248325 0
0 0.263844 0
0 0.277806 0
0.0257725 0.292653 0
0.0744335 0.304417 0
0.136431 0.313313 0
0.21593 0.316243 0
0.313085 0.314946 0
0.420844 0.316747 0
0.527367 0.31664 0
0.633051 0.316884 0
0.727901 0.320195 0
0.806012 0.328038 0
0.870451 0.34107 0.0110018
0.924269 0.356344 0.0256352
0.973068 0.374945 0.042649
0 0.319387 0
0 0.32961 0
0 0.349233 0
0 0.367285 0
0.0139162 0.382879 0
0.0671702 0.400748 0
0.132357 0.41323 0
0.214923 0.418997 0
0.312596 0.418372 0
0.413962 0.415946 0
0.525689 0.420371 0
0.631983 0.420279 0
0.726329 0.422171 0
0.804959 0.430076 0
0.869184 0.441718 0.00839246
0.923903 0.457176 0.0235904
0.973434 0.475624 0.0410468
0 0.409949 0
0 0.424125 0
0 0.447333 0
0 0.467552 0
0.012192 0.485069 0
0.0631266 0.500267 0
0.130282 0.51635 0
0.214176 0.523949 0
0.313054 0.523796 0
0.411673 0.518685 0
0.516854 0.519142 0
0.628412 0.5234 0
0.725414 0.527016 0
0.805249 0.535378 0
0.869764 0.546532 0.00830091
0.924559 0.561852 0.0229648
0.972885 0.577905 0.0388037
0 0.51075 0
0 0.528038 0
0 0.551553 0
0 0.57203 0
0.0121309 0.589761 0
0.0616465 0.603647 0
0.123949 0.614832 0
0.210712 0.626215 0
0.312184 0.628473 0
0.41648 0.628428 0
0.517266 0.624674 0
0.623133 0.625254 0
0.723445 0.631266 0
0.804562 0.640253 0
0.868528 0.650324 0.00666819
0.921904 0.663584 0.0196841
0.968215 0.676905 0.0330663
0 0.612192 0
0 0.630732 0
0 0.652079 0
0 0.672114 0
0.0191653 0.689586 0
0.0695506 0.704494 0
0.132891 0.717113 0
0.214527 0.724071 0
0.320562 0.730388 0
0.426932 0.731426 0
0.528557 0.728206 0
0.6309 0.725719 0
0.725338 0.727413 0
0.80528 0.733837 0
0.869352 0.743832 0.0059205
0.920363 0.754299 0.0175479
0.963623 0.764187 0.027924
0 0.707012 0
0 0.727321 0
0 0.748486 0
0.000579843 0.768795 0
0.0433661 0.786419 0
0.0940261 0.80174 0
0.156512 0.813504 0
0.237003 0.819699 0.00015259
0.338384 0.821958 0.00585946
0.446342 0.82324 0.0128328
0.548821 0.820142 0.00946059
0.64686 0.813565 0
0.738231 0.812222 0
0.81265 0.814237 0
0.872084 0.818692 0
0.922179 0.828 0.0168612
0.962875 0.835142 0.0263981
0 0.801328 0
0 0.821057 0
0.00273136 0.841337 0
0.0369421 0.860227 0
0.0789807 0.876631 0.00334173
0.128283 0.890547 0.016907
0.188678 0.900526 0.0267338
0.26688 0.904707 0.0306859
0.363516 0.902754 0.0287327
0.467918 0.900114 0.0317845
0.569497 0.895216 0.0309606
0.668315 0.88809 0.0217288
0.753292 0.881086 0.00691234
0.824399 0.879942 0.00547799
0.880446 0.881834 0.00724804
0.925689 0.885328 0.0108797
0.965057 0.891157 0.0247807
0 0.894118 0
0.0143587 0.908934 0
0.0453193 0.926482 0.0122072
0.0780804 0.943069 0.0282139
0.117952 0.957107 0.0420539
0.164355 0.968048 0.0528573
0.2215 0.974853 0.0596475
0.296147 0.975723 0.0604257
0.389151 0.970489 0.0552071
0.487251 0.962707 0.047364
0.587182 0.955276 0.0471046
0.685466 0.946136 0.0403296
0.768872 0.937209 0.0254826
0.836439 0.932525 0.0171511
0.889708 0.931868 0.0164034
0.932158 0.933318 0.0176394
0.968307 0.9355 0.0200198
0.0369726 0.975952 0.0271611
0.0577249 0.98703 0.0380865
0.0857252 1 0.0520485
0.115648 1 0.0652934
0.152132 1 0.0758526
0.195163 1 0.0834058
0.24918 1 0.0870985
0.320653 1 0.0848859
0.410666 1 0.0768292
0.505913 1 0.0662394
0.60061 1 0.0550088
0.697963 0.99266 0.051606
0.781323 0.982361 0.0421912
0.846006 0.975235 0.0263371
0.897475 0.972534 0.0236515
0.937881 0.972351 0.0232242
0.972274 0.973312 0.0241398
0.00350958 0.00494392 0.0274662
0.0154421 0.00268559 0.0277562
0.033051 0.000503548 0.0297093
0.053727 0 0.0282292
0.0714275 0.00141909 0.0214237
0.102861 0 0.019028
0.143832 0 0.0110933
0.199512 0 0
0.27245 0 0
0.354955 0 0
0.437705 0 0
0.526055 0 0
0.610681 0 0
0.683192 0 0
0.74165 0 0
0.790433 0 0
0.831785 0 0
0.00175479 0.0152285 0.0272831
0.0149844 0.0152438 0.0270085
0.0323491 0.0160372 0.0284733
0.0531472 0.0145571 0.0270237
0.0833906 0.0105898 0.0231327
0.102739 0.00738537 0.0182193
0.144808 0.000564584 0.0107881
0.202182 0 0
0.276585 0 0
0.360708 0 0
0.445655 0 0
0.534417 0 0
0.619242 0 0
0.692638 0 0
0.75111 0 0
0.79823 0 0
0.839429 0 0
0 0.0290227 0.0267338
0.0146639 0.0288853 0.0264286
0.0287633 0.02916 0.0260929
0.0538186 0.0306096 0.0271153
0.0851759 0.0273899 0.0238804
0.104799 0.022797 0.0170291
0.149233 0.0183108 0.0140536
0.212879 0.0090486 0.0041352
0.294896 0 0
0.38471 0 0
0.475563 0 0
0.56846 0 0
0.651774 0 0
0.720394 0 0
0.77528 0 0
0.82153 0 0
0.86331 0 0
0 0.0444038 0.0243381
0.012726 0.044831 0.0244907
0.027451 0.045594 0.024506
0.0481727 0.046952 0.0247654
0.0880598 0.0506905 0.0255131
0.13257 0.0469978 0.0218509
0.156832 0.0382086 0.0168612
0.225147 0.0292821 0.00737011
0.311192 0.0164034 0
0.400809 0.00357061 0
0.492241 0 0
0.584604 0 0
0.666911 0 0
0.734829 0 0
0.78996 0 0
0.837476 0 0
0.880903 7.62951e-05 0
0 0.0650492 0.0177768
0.0069276 0.0669718 0.0188602
0.023621 0.0693065 0.0202182
0.0439765 0.0720531 0.0230106
0.0766461 0.0746929 0.0233005
0.134874 0.0827344 0.0231327
0.160784 0.0677348 0.0189364
0.231159 0.0596933 0.0104677
0.318044 0.0478676 0
0.408774 0.0365911 0
0.502541 0.0260319 0
0.596841 0.0171359 0
0.681041 0.0125734 0
0.751232 0.014313 0
0.809033 0.0217288 0
0.859205 0.0340887 0
0.905577 0.049958 0
0 0.0934768 0.0109255
0 0.0970321 0.0122988
0.0186618 0.101747 0.0149386
0.0399634 0.106355 0.0187076
0.0699779 0.108461 0.0209049
0.11487 0.112245 0.020798
0.161517 0.106752 0.0195621
0.234211 0.10045 0.0132448
0.323552 0.090547 0.00321965
0.417655 0.0816968 0
0.513603 0.0735485 0
0.610742 0.0674907 0
0.698772 0.0661173 0
0.772335 0.0711528 0
0.833188 0.0817121 0
0.886687 0.0974441 0.00317388
0.935714 0.116014 0.0200198
0 0.131212 0
0 0.135683 0.000183108
0.00759899 0.143297 0.0033875
0.0299077 0.150652 0.00823987
0.062089 0.155459 0.0129854
0.103532 0.158862 0.016083
0.158083 0.159258 0.0161288
0.234272 0.156069 0.0137636
0.327199 0.148852 0.00704967
0.42504 0.142916 0.000869764
0.524834 0.137743 0
0.626184 0.13547 0
0.717388 0.137346 0
0.793942 0.145495 0.000518807
0.857847 0.158877 0.0126192
0.91284 0.176181 0.0282444
0.962356 0.195514 0.045594
0 0.180606 0
0 0.185611 0
0 0.198398 0
0.0120394 0.209873 0
0.0471199 0.218479 0
0.0921035 0.225513 0.00479133
0.150393 0.229618 0.00849927
0.22858 0.230289 0.00822461
0.326543 0.227024 0.00668345
0.428946 0.224765 0.004654
0.532418 0.222538 0.00288396
0.63679 0.222766 0.002533
0.730404 0.226337 0.00570687
0.808896 0.236088 0.0142824
0.873152 0.249958 0.0267491
0.92755 0.266728 0.0418402
0.976501 0.285603 0.0586099
0 0.245792 0
0 0.244816 0
0 0.269596 0
0 0.286 0
0.0289464 0.299321 0
0.0780194 0.310857 0
0.140673 0.319265 0
0.222217 0.323384 0.00228885
0.321752 0.323796 0.00175479
0.427405 0.323766 0.00349432
0.533394 0.323033 0.00393683
0.6392 0.323751 0.00459297
0.733318 0.327077 0.00799573
0.811246 0.335805 0.0158999
0.874617 0.347906 0.0271916
0.928222 0.363638 0.0413977
0.976715 0.381826 0.0575875
0 0.325139 0
0 0.323766 0
0 0.35462 0
0 0.376104 0
0.0198672 0.393622 0
0.0723278 0.408637 0
0.137499 0.419974 0
0.221271 0.426062 0.00215152
0.321431 0.427176 0.00198367
0.425208 0.427298 0.00128176
0.533059 0.427726 0.00340276
0.637949 0.426596 0.00350958
0.731945 0.428916 0.00634775
0.809903 0.436805 0.0140688
0.874006 0.449134 0.0259403
0.928542 0.464942 0.0408331
0.977661 0.482856 0.057435
0 0.417304 0
0 0.415488 0
0 0.450126 0
0 0.475471 0
0.0169375 0.495644 0
0.0703136 0.511925 0
0.136019 0.524102 0
0.219623 0.530221 0.00122072
0.319738 0.530739 0.00122072
0.422385 0.529915 0
0.527916 0.530282 0
0.635447 0.530877 0.00123598
0.731823 0.534829 0.00590524
0.810193 0.542168 0.0141299
0.874647 0.554269 0.0260777
0.928695 0.568765 0.0403296
0.976944 0.585367 0.0558785
0 0.519112 0
0 0.517021 0
0 0.551202 0
0 0.578027 0
0.014374 0.597818 0
0.0669871 0.613657 0
0.132799 0.626612 0
0.217166 0.633295 0
0.319081 0.635401 0.00158694
0.423636 0.635645 0.0011902
0.528496 0.635691 0
0.633524 0.635645 0
0.731212 0.640116 0.00508125
0.809628 0.64683 0.0133669
0.873365 0.657771 0.0244602
0.925704 0.669825 0.0369116
0.972 0.68397 0.050309
0 0.621027 0
0 0.618647 0
0 0.64686 0
0 0.674434 0
0.0195773 0.695491 0
0.0737621 0.713146 0
0.140688 0.727459 0
0.22562 0.734981 0.00849927
0.328771 0.737743 0.011841
0.4336 0.737499 0.0120241
0.538567 0.736904 0.0101167
0.640711 0.7346 0.00540169
0.73434 0.736355 0.00616464
0.812284 0.741878 0.0151522
0.874113 0.750362 0.0247959
0.923735 0.759365 0.0346075
0.966888 0.769787 0.0448157
0 0.716091 0
0 0.713558 0
0 0.736248 0
0 0.765103 0
0.0402991 0.788952 0
0.0957961 0.80795 0.00349432
0.162173 0.821805 0.0201267
0.246326 0.82884 0.0295872
0.349081 0.83035 0.032639
0.453056 0.828565 0.0319677
0.556695 0.826078 0.0291905
0.657038 0.821424 0.0231937
0.745815 0.818921 0.0169985
0.818708 0.820203 0.0179751
0.878401 0.826108 0.0276799
0.925399 0.832242 0.0356603
0.965759 0.839475 0.0433967
0 0.808545 0
0 0.805859 0
0 0.829633 0
0.0263371 0.854841 0
0.0706493 0.874159 0.000701915
0.125689 0.892866 0.0278935
0.190692 0.90605 0.0469215
0.27303 0.911513 0.0561685
0.373281 0.910048 0.0574197
0.475303 0.905211 0.0545663
0.576501 0.89955 0.0495918
0.674464 0.892012 0.0417792
0.760952 0.886702 0.034165
0.829221 0.884123 0.0269169
0.884565 0.885847 0.0285039
0.929885 0.890028 0.0378576
0.967956 0.894804 0.0445869
0 0.895705 0.0065919
0 0.893004 0
0.0272984 0.91632 0.00239567
0.0679637 0.938323 0.0236057
0.109987 0.954925 0.0397803
0.15758 0.966674 0.0515145
0.218204 0.976776 0.0685435
0.298085 0.980041 0.0798505
0.395377 0.975387 0.07953
0.495186 0.967529 0.0746624
0.594354 0.958816 0.067689
0.690349 0.948653 0.0581826
0.775021 0.94078 0.0493172
0.841154 0.935943 0.0415351
0.892439 0.934279 0.0334173
0.934569 0.935637 0.0353399
0.971237 0.938689 0.0450141
0.0263676 0.974762 0.0491188
0.0238041 0.972061 0.0408331
0.0697795 0.993072 0.0440833
0.106355 1 0.0614633
0.144793 1 0.0741588
0.18883 1 0.0824903
0.243366 1 0.0870527
0.316716 1 0.0924086
0.41268 1 0.0954604
0.511162 1 0.089662
0.608118 1 0.0811475
0.702602 0.994507 0.0702678
0.785779 0.984421 0.0603647
0.850431 0.977859 0.0523995
0.900435 0.974853 0.0453346
0.939055 0.973449 0.0336156
0.973617 0.974594 0.0372015
0.00520333 0.00738537 0.0429084
0.0152132 0.00489815 0.0430762
0.0308843 0.0015259 0.0442206
0.0465248 0.00453193 0.0374304
0.0716411 0 0.0396887
0.102617 0 0.0345312
0.14374 0 0.026978
0.199451 0 0.015671
0.272862 0 6.10361e-05
0.355261 0 0
0.43888 0 0
0.527626 0 0
0.61323 0 0
0.685328 0 0
0.742473 0 0
0.787655 0 0
0.825849 0 0
0.00399786 0.0155795 0.0425116
0.0150149 0.0155947 0.042237
0.0290837 0.0151217 0.0423438
0.0529946 0.0142977 0.0440986
0.0833753 0.0104372 0.0402686
0.102693 0.00697337 0.0339513
0.144747 0.000259403 0.0267185
0.202502 0 0.0156405
0.277546 0 0.000122072
0.361608 0 0
0.447654 0 0
0.536919 0 0
0.622507 0 0
0.692607 0 0
0.748379 0 0
0.79237 0 0
