tracker_LUT/LUT/quraqqq_12.A032_01050554_C002.cube
TITLE "Generated by Resolve"
LUT_3D_SIZE 9
0 0 0
0.0327764 0.000350958 0.000350958
0.0706493 0.00634775 0.00196841
0.143252 0 0
0.274174 0 0
0.447486 0 0
0.628229 0 0
0.757671 0 0
0.845716 0 0
0.00137331 0.0291295 0
0.0298009 0.0293889 0
0.0718395 0.0247959 0
0.147173 0.0163272 0
0.289647 0 0
0.46952 0 0
0.646922 0 0
0.77116 0 0
0.8589 0 0
0 0.0644541 0
0.023331 0.0678416 0
0.0703746 0.0702983 0
0.156573 0.0646983 0
0.312291 0.0447852 0
0.495872 0.0221561 0
0.675654 0.00782788 0
0.803815 0.0157931 0
0.899977 0.0430304 0
0 0.12987 0
0.00784314 0.139895 0
0.0593881 0.150149 0
0.152361 0.153368 0
0.3178 0.141573 0
0.514961 0.129793 0
0.708995 0.12871 0
0.850843 0.149798 0
0.956771 0.187472 0.0269627
0 0.244251 0
0 0.264942 0
0.0250248 0.289509 0
0.132235 0.307668 0
0.309957 0.312001 0
0.52076 0.310185 0
0.722118 0.313466 0
0.868025 0.337407 0.00131228
0.971405 0.371908 0.0363317
0 0.417777 0
0 0.448615 0
0.0136416 0.485191 0
0.127169 0.511604 0
0.308309 0.518898 0
0.516686 0.519158 0
0.719951 0.520821 0
0.865339 0.540139 0
0.970275 0.573571 0.0273289
0 0.624384 0
0 0.653452 0
0.0205997 0.68983 0
0.134157 0.717266 0
0.315465 0.725689 0
0.526299 0.726085 0
0.725292 0.727504 0
0.866178 0.73991 0
0.960922 0.760067 0.0126192
0 0.814755 0
0.00556954 0.842893 0
0.0803235 0.876875 0.00367742
0.190005 0.900633 0.0268406
0.364553 0.902724 0.0287022
0.565484 0.892607 0.0184939
0.753414 0.881102 0.00691234
0.8804 0.88188 0.00724804
0.963836 0.889784 0.0155184
0.0488899 0.981994 0.0331884
0.0882277 1 0.053193
0.153582 1 0.0762493
0.250462 1 0.0871443
0.411765 1 0.0767224
0.601221 1 0.0549325
0.779492 0.98146 0.032639
0.89749 0.972549 0.0236515
0.972244 0.973342 0.0241398
0.00350958 0.00494392 0.0274662
0.033051 0.000503548 0.0297093
0.0714275 0.00141909 0.0214237
0.143832 0 0.0110933
0.27245 0 0
0.437705 0 0
0.610681 0 0
0.74165 0 0
0.831785 0 0
0 0.0290227 0.0267338
0.0287633 0.02916 0.0260929
0.0851759 0.0273899 0.0238804
0.149233 0.0183108 0.0140536
0.294896 0 0
0.475563 0 0
0.651774 0 0
0.77528 0 0
0.86331 0 0
0 0.0650492 0.0177768
0.023621 0.0693065 0.0202182
0.0766461 0.0746929 0.0233005
0.160784 0.0677348 0.0189364
0.318044 0.0478676 0
0.502541 0.0260319 0
0.681041 0.0125734 0
0.809033 0.0217288 0
0.905577 0.049958 0
0 0.131212 0
0.00759899 0.143297 0.0033875
0.062089 0.155459 0.0129854
0.158083 0.159258 0.0161288
0.327199 0.148852 0.00704967
0.524834 0.137743 0
0.717388 0.137346 0
0.857847 0.158877 0.0126192
0.962356 0.195514 0.045594
0 0.245792 0
0 0.269596 0
0.0289464 0.299321 0
0.140673 0.319265 0
0.321752 0.323796 0.00175479
0.533394 0.323033 0.00393683
0.733318 0.327077 0.00799573
0.874617 0.347906 0.0271916
0.976715 0.381826 0.0575875
0 0.417304 0
0 0.450126 0
0.0169375 0.495644 0
0.136019 0.524102 0
0.319738 0.530739 0.00122072
0.527916 0.530282 0
0.731823 0.534829 0.00590524
0.874647 0.554269 0.0260777
0.976944 0.585367 0.0558785
0 0.621027 0
0 0.64686 0
0.0195773 0.695491 0
0.140688 0.727459 0
0.328771 0.737743 0.011841
0.538567 0.736904 0.0101167
0.73434 0.736355 0.00616464
0.874113 0.750362 0.0247959
0.966888 0.769787 0.0448157
0 0.808545 0
0 0.829633 0
0.0706493 0.874159 0.000701915
0.190692 0.90605 0.0469215
0.373281 0.910048 0.0574197
0.576501 0.89955 0.0495918
0.760952 0.886702 0.034165
0.884565 0.885847 0.0285039
0.967956 0.894804 0.0445869
0.0263676 0.974762 0.0491188
0.0697795 0.993072 0.0440833
0.144793 1 0.0741588
0.243366 1 0.0870527
0.41268 1 0.0954604
0.608118 1 0.0811475
0.785779 0.984421 0.0603647
0.900435 0.974853 0.0453346
0.973617 0.974594 0.0372015
0.00601205 0.00889601 0.0661936
0.0287175 0.00442512 0.0667124
0.0702983 0.00259403 0.0623789
0.142855 0 0.0500343
0.271138 0 0.0229496
0.438361 0 0
0.61387 0 0
0.743542 0 0
0.827222 0 0
0.00241093 0.0283207 0.0649424
0.0281071 0.0287938 0.0645914
0.0848707 0.0269169 0.0673838
0.149203 0.0159304 0.0510567
0.293065 0 0.0251926
0.471214 0 0
0.64445 0 0
0.765362 0 0
0.847623 0 0
0 0.0655833 0.055848
0.0250858 0.0706645 0.0600443
0.0734722 0.0753185 0.0613413
0.204746 0.0789654 0.0623636
0.322469 0.0557259 0.0405585
0.509697 0.0360266 0.0190127
0.690425 0.0253147 0.00588998
0.819791 0.0370642 0.014725
0.918395 0.0678111 0.0418402
0 0.134157 0.038468
0.0108797 0.147707 0.044419
0.063035 0.160815 0.0507057
0.174197 0.169207 0.0549935
0.334539 0.158114 0.049546
0.534539 0.150622 0.0407111
0.728923 0.153216 0.0411231
0.869581 0.176715 0.0614176
0.973846 0.213931 0.0945602
0 0.253071 0
0 0.28011 0.00144961
0.0320745 0.309255 0.0185397
0.14815 0.330999 0.0408179
0.332906 0.336767 0.0453346
0.545007 0.33753 0.0482795
0.743694 0.342138 0.0528115
0.88333 0.363806 0.0720684
0.985641 0.398795 0.103182
0 0.429664 0
0 0.46656 0
0.022858 0.508766 0.00813306
0.143816 0.537148 0.0365759
0.330053 0.543145 0.0428779
0.540658 0.544167 0.0420539
0.742641 0.548837 0.0496681
0.884138 0.569467 0.0704662
0.985138 0.600183 0.0998398
0 0.633967 0
0 0.665263 0
0.027985 0.710353 0.0121614
0.150469 0.741024 0.043534
0.340398 0.749798 0.0538186
0.551217 0.748928 0.0526741
0.746303 0.748913 0.0505837
0.881773 0.760922 0.0661784
0.97261 0.77937 0.0852064
0 0.821805 0.0122835
0 0.844633 0.0242924
0.0849317 0.893141 0.0679637
0.202426 0.918837 0.0955978
0.383734 0.919066 0.0986954
0.585992 0.906645 0.0882124
0.76968 0.893477 0.0738994
0.891432 0.892943 0.0712139
0.971878 0.899901 0.0824598
0.0369421 0.985489 0.0949569
0.0343328 0.982818 0.081239
0.149538 1 0.131533
0.253483 1 0.146288
0.422141 1 0.137682
0.615305 1 0.117266
0.791318 0.987427 0.0954604
0.904768 0.978317 0.0838178
0.977401 0.978485 0.0817578
0.00561532 0.00967422 0.140124
0.0246586 0.00492866 0.140215
0.0670939 0 0.134539
0.13843 0 0.117754
0.26537 0 0.0882734
0.4327 0 0.0522164
0.610452 0 0.0204166
0.742397 0 0.00578317
0.827741 0 0.00791943
0.00350958 0.025864 0.137804
0.0253758 0.0266117 0.138369
0.0682841 0.0234073 0.134585
0.147448 0.0151217 0.123049
0.291066 0 0.0962997
0.469688 0 0.0648508
0.644343 0 0.0370947
0.766232 0 0.0272526
0.849973 0 0.0331426
0 0.0641184 0.126726
0.0246891 0.0698863 0.134173
0.0726177 0.0752422 0.138781
0.205356 0.0788891 0.149004
0.324727 0.0513771 0.114153
0.511086 0.0289006 0.0899367
0.689647 0.0142367 0.0724193
0.815534 0.0201572 0.0748302
0.908949 0.0424506 0.0929427
0 0.134905 0.107942
0.0122835 0.14905 0.119249
0.0663005 0.163165 0.129381
0.166766 0.16614 0.120333
0.428168 0.194949 0.146166
0.540093 0.16849 0.126177
0.737987 0.174365 0.128908
0.880995 0.200214 0.150851
0.985458 0.238025 0.183886
0 0.257572 0.0630808
0 0.287999 0.0811627
0.0398108 0.31751 0.100694
0.150896 0.340917 0.117281
0.363653 0.35079 0.119875
0.551431 0.350591 0.130144
0.750546 0.357992 0.135439
0.890745 0.381033 0.155352
0.993744 0.417456 0.187396
0 0.439261 0.0352789
0 0.480949 0.0633097
0.0325628 0.519463 0.0899519
0.145907 0.546578 0.110735
0.335988 0.553918 0.119921
0.549035 0.555184 0.120363
0.75024 0.560632 0.129915
0.891569 0.582116 0.151247
0.992264 0.613825 0.180728
0 0.643595 0.0348974
0 0.681254 0.061387
0.0380713 0.721798 0.092546
0.153643 0.750576 0.116655
0.3449 0.759777 0.128649
0.558022 0.758328 0.128481
0.75346 0.757534 0.126207
0.886885 0.768429 0.14197
0.976303 0.78613 0.160555
0 0.832532 0.085069
0.0140841 0.863081 0.10956
0.0935531 0.902968 0.145296
0.204181 0.926375 0.16582
0.385107 0.925673 0.1691
0.588556 0.911803 0.158328
0.772915 0.89752 0.143984
0.89398 0.896178 0.140978
0.973068 0.902083 0.152728
0.0445411 0.993149 0.164096
0.075761 1 0.172198
0.153796 1 0.202991
0.252537 1 0.212192
0.420829 1 0.203616
0.614618 1 0.182834
0.791409 0.988525 0.161074
0.905013 0.978973 0.149844
0.977401 0.978866 0.147829
9.15541e-05 0.00544747 0.27657
0.0158389 0 0.276936
0.0583047 0 0.266545
0.129763 0 0.243732
0.260044 0 0.210742
0.421317 0 0.16466
0.598962 0 0.131853
0.734981 0 0.120272
0.822324 0 0.125597
0 0.0194095 0.274205
0.0181888 0.0204623 0.276631
0.0607004 0.0165713 0.271763
0.139834 0.00764477 0.257359
0.288289 0 0.232593
0.463218 0 0.197314
0.63801 0 0.168963
0.761151 0 0.159304
0.84654 0 0.16643
0 0.0593271 0.261021
0.0193484 0.0652323 0.273838
0.0670634 0.0706188 0.282429
0.158907 0.0671244 0.278935
0.320928 0.0496071 0.2598
0.508461 0.0258183 0.236255
0.688121 0.0119631 0.219196
0.815763 0.0196384 0.222599
0.91078 0.0435187 0.241352
0 0.13167 0.240269
0.00994888 0.146151 0.259815
0.0658427 0.161654 0.272633
0.163821 0.171649 0.278904
0.430365 0.196338 0.312856
0.545144 0.161227 0.266743
0.740703 0.161624 0.264698
0.880781 0.181537 0.280812
0.983581 0.213336 0.307713
0 0.258106 0.192462
0 0.289265 0.220813
0.0444343 0.321035 0.248356
0.157214 0.345739 0.265995
0.348272 0.327504 0.204929
0.673396 0.4121 0.310842
0.749493 0.374548 0.284779
0.892424 0.400366 0.306325
0.996475 0.438621 0.340108
0 0.444312 0.166644
0 0.488594 0.207141
0.0403296 0.525429 0.238865
0.149584 0.551537 0.254536
0.332998 0.561502 0.256123
0.590646 0.571694 0.24155
0.752071 0.569284 0.273213
0.893629 0.592813 0.296391
0.993179 0.625483 0.326543
0 0.649042 0.162509
0 0.691325 0.204868
0.0481117 0.729213 0.239872
0.157855 0.756527 0.256748
0.34081 0.766003 0.259495
0.557778 0.763699 0.262394
0.754742 0.761532 0.259525
0.886503 0.771405 0.27837
0.974227 0.788251 0.297704
0 0.838712 0.20972
0.0292363 0.87451 0.250614
0.103029 0.909117 0.288029
0.205386 0.929503 0.298817
0.377844 0.928267 0.293065
0.583749 0.912886 0.284276
0.770123 0.897093 0.271061
0.891279 0.894713 0.267247
0.969131 0.89958 0.28246
0.0477302 0.996399 0.282521
0.0924544 1 0.307012
0.158877 1 0.337316
0.24947 1 0.336736
0.410224 1 0.321462
0.606592 1 0.302007
0.785611 0.985504 0.281819
0.900191 0.975189 0.271778
0.97258 0.974731 0.269535
0 0 0.455756
0.00384527 0 0.456168
0.0464179 0 0.446189
0.117082 0 0.423041
0.244068 0 0.388327
0.425376 0 0.359152
0.58526 0 0.308614
0.719539 0 0.291722
0.809308 0 0.300404
0 0.0108034 0.454948
0.00830091 0.0119936 0.458228
0.0501411 0.00732433 0.455283
0.129534 0 0.441367
0.277012 0 0.416205
0.459449 0 0.387869
0.628733 0 0.354314
0.751476 0 0.344121
0.837507 0 0.352316
0 0.0523384 0.447456
0.0112001 0.0583505 0.460288
0.0593881 0.0640574 0.469642
0.151308 0.0594797 0.467445
0.314382 0.041825 0.448753
0.504204 0.0239261 0.427771
0.683604 0.00714122 0.411475
0.811933 0.014725 0.416648
0.908522 0.0399786 0.438315
0 0.125978 0.429145
0.00381476 0.140246 0.448127
0.0619821 0.158938 0.461784
0.160388 0.169589 0.471046
0.338399 0.167498 0.466239
0.544747 0.165347 0.46363
0.74168 0.16347 0.464591
0.881392 0.182055 0.481941
0.983978 0.213306 0.50985
0 0.256031 0.385336
0 0.288365 0.415946
0.0463417 0.321355 0.444282
0.161059 0.347173 0.460883
0.341497 0.357839 0.467552
0.672038 0.411109 0.525048
0.755016 0.363592 0.469993
0.896208 0.383093 0.487785
0.999176 0.414649 0.515892
0 0.444984 0.358083
0 0.488045 0.399161
0.0413519 0.526772 0.434775
0.154696 0.552178 0.454902
0.336187 0.562722 0.456245
0.57203 0.536217 0.350576
0.819608 0.630716 0.500038
0.889021 0.605005 0.49102
0.98822 0.637781 0.520256
0 0.649866 0.355352
0 0.693507 0.402136
0.0515297 0.731044 0.439704
0.163378 0.757824 0.460716
0.33872 0.766995 0.458091
0.549798 0.765881 0.450629
0.784665 0.772686 0.428702
0.880629 0.770703 0.467033
0.967224 0.787778 0.486564
0 0.839368 0.402457
0.035462 0.878233 0.453101
0.106203 0.909255 0.488365
0.208682 0.927306 0.500893
0.37055 0.925231 0.486503
0.571084 0.910048 0.467308
0.761273 0.892393 0.455131
0.883467 0.888716 0.450477
0.960357 0.892989 0.466346
0.0449989 0.993713 0.470909
0.0974746 1 0.507927
0.15848 1 0.535058
0.248631 1 0.535897
0.398642 1 0.510399
0.590326 1 0.481437
0.773388 0.978225 0.461189
0.890074 0.966827 0.453101
0.962768 0.965942 0.45066
0 0 0.638697
0 0 0.638025
0.0347295 0 0.630793
0.105806 0 0.610254
0.229847 0 0.573632
0.410178 0 0.54377
0.597955 0 0.523018
0.710567 0 0.482444
0.79379 0 0.476402
0 0.0031281 0.64004
0 0.00502022 0.645014
0.0397345 0 0.642649
0.120516 0 0.631388
0.266163 0 0.604181
0.448692 0 0.575921
0.628458 0 0.553796
0.744503 0 0.536477
0.828458 0 0.540932
0 0.0463417 0.638392
0.00361639 0.0525216 0.649012
0.0523995 0.058854 0.657725
0.143816 0.0531014 0.657191
0.307744 0.034638 0.639185
0.499123 0.0178683 0.619806
0.682872 0.0100404 0.608118
0.809766 0.0125887 0.612909
0.905898 0.0360723 0.635081
0 0.122667 0.622995
0 0.136538 0.639307
0.0589609 0.158068 0.654551
0.157702 0.168811 0.666484
0.338064 0.166232 0.664225
0.545403 0.164797 0.661067
0.743282 0.170123 0.664393
0.882383 0.183932 0.682521
0.983978 0.212512 0.710811
0 0.255512 0.583963
0 0.287861 0.613535
0.0476234 0.322469 0.642283
0.164981 0.351659 0.658167
0.342885 0.360693 0.667308
0.557565 0.35996 0.650385
0.753643 0.370291 0.669902
0.896361 0.386603 0.691386
0.999664 0.416617 0.721416
0 0.444892 0.558862
0 0.490806 0.602548
0.044358 0.527932 0.635813
0.159014 0.553597 0.655482
0.342489 0.563806 0.655894
0.548379 0.5691 0.658259
0.81622 0.624704 0.698085
0.893477 0.59411 0.679133
0.99205 0.620096 0.703609
0 0.650309 0.553017
0 0.691997 0.597864
0.0514687 0.731716 0.638392
0.166262 0.758541 0.66247
0.346899 0.765774 0.663935
0.549493 0.764797 0.653376
0.759457 0.74789 0.571664
0.889525 0.780316 0.651484
0.957412 0.789624 0.678752
0 0.839231 0.601907
0.0350958 0.877653 0.653086
0.105669 0.907607 0.688396
0.208682 0.924071 0.70219
0.373465 0.9196 0.691142
0.561608 0.90547 0.66482
0.749874 0.887861 0.643748
0.879789 0.880735 0.616892
0.950393 0.886244 0.65536
0.0411078 0.989868 0.667994
0.0970626 1 0.709453
0.155718 1 0.733455
0.24625 1 0.735302
0.397955 1 0.713375
0.576165 0.997665 0.675578
0.758495 0.970993 0.646494
0.878798 0.958206 0.639841
0.952285 0.956863 0.636713
0 0 0.780713
0 0 0.779187
0.0267185 0 0.775891
0.0996719 0 0.764096
0.226307 0 0.734737
0.390646 0 0.695338
0.588647 0 0.677775
0.724956 0 0.672831
0.792218 0 0.651255
0 0.000793469 0.783413
0 0.00308232 0.787091
0.0333257 0 0.785245
0.115801 0 0.777646
0.262531 0 0.75259
0.439261 0 0.721569
0.62327 0 0.702098
0.751568 0 0.701274
0.828122 0 0.69955
0 0.0453193 0.78471
0.000823987 0.0517586 0.791257
0.0503548 0.0591592 0.798672
0.140307 0.0518349 0.797971
0.305821 0.0337682 0.781689
0.496925 0.0143587 0.762875
0.683864 0.0106966 0.755169
0.817334 0.0252384 0.7673
0.910063 0.04094 0.787228
0 0.125063 0.776303
0 0.13875 0.787152
0.060502 0.162478 0.802365
0.160891 0.174365 0.815076
0.342123 0.170871 0.815137
0.549538 0.16669 0.811963
0.747967 0.174746 0.81619
0.888395 0.196323 0.83624
0.98819 0.217945 0.863966
0 0.263188 0.747295
0 0.292378 0.767956
0.0530861 0.330098 0.795056
0.172503 0.361685 0.813886
0.347677 0.367834 0.821912
0.560265 0.368246 0.820813
0.758526 0.375586 0.824079
0.900099 0.397925 0.845182
1 0.423331 0.876646
0 0.453834 0.730602
0 0.494636 0.761791
0.0493019 0.532128 0.791043
0.166293 0.559289 0.811032
0.352132 0.571328 0.811734
0.553368 0.57499 0.81593
0.761975 0.570321 0.782925
0.894209 0.603387 0.835264
0.992355 0.625177 0.861234
0 0.652934 0.723369
0 0.698848 0.764324
0.0588846 0.736858 0.798627
0.173999 0.762585 0.821057
0.354177 0.768521 0.822446
0.55639 0.765881 0.812482
0.743328 0.761975 0.806729
0.886793 0.77435 0.799603
0.959625 0.780255 0.821912
0 0.841337 0.771221
0.0316167 0.876554 0.810513
0.104875 0.90811 0.844236
0.209232 0.923674 0.858549
0.376944 0.917174 0.849439
0.568154 0.900298 0.828351
0.745068 0.884031 0.805249
0.870832 0.876265 0.778881
0.942748 0.88275 0.800748
0.0389105 0.987732 0.837018
0.0935988 1 0.869215
0.152697 1 0.889372
0.243824 1 0.892027
0.397986 1 0.872557
0.577371 0.989563 0.841932
0.747189 0.965331 0.808392
0.868925 0.952438 0.794644
0.943954 0.950362 0.791699
0 0 0.868177
0 0 0.864866
0.0245212 0 0.864851
0.0995804 0 0.856962
0.232303 0 0.833005
0.395193 0 0.797559
0.569329 0 0.765942
0.725597 0 0.769757
0.818357 0 0.782834
0 0.00497444 0.870512
0 0.00782788 0.87332
0.0321508 0 0.871519
0.11606 0 0.865492
0.264805 0 0.842313
0.440848 0 0.81265
0.616709 0 0.788571
0.754711 0 0.794491
0.847623 0 0.812192
0 0.0504311 0.873335
0.00360113 0.0571603 0.878065
0.0539254 0.0653239 0.884962
0.141649 0.0558633 0.88455
0.308705 0.0391546 0.869902
0.501152 0.0192416 0.852384
0.686488 0.0103304 0.843763
0.825818 0.0342718 0.86215
0.926772 0.0642405 0.890669
0 0.13431 0.870329
0.00381476 0.147921 0.878584
0.0682994 0.173861 0.894789
0.170016 0.186633 0.908156
0.349966 0.18114 0.909209
0.558999 0.176318 0.907027
0.756344 0.179126 0.910658
0.897353 0.206332 0.931868
0.998169 0.23595 0.960754
0 0.27863 0.849943
0 0.305165 0.865324
0.063798 0.343999 0.891768
0.184665 0.377691 0.912154
0.356497 0.379751 0.918425
0.569512 0.37821 0.91725
0.768688 0.382315 0.921294
0.909117 0.408911 0.941741
1 0.440345 0.972808
0 0.468193 0.83856
0 0.504402 0.861128
0.0585794 0.541817 0.887831
0.177752 0.571099 0.909163
0.366033 0.585641 0.91133
0.562615 0.586358 0.914549
0.763882 0.591455 0.916503
0.900893 0.612512 0.931975
0.996246 0.63682 0.955322
0 0.666758 0.8365
0 0.707958 0.867399
0.0691234 0.745846 0.898634
0.185412 0.771328 0.920073
0.367224 0.776379 0.919875
0.567803 0.772915 0.908476
0.747631 0.76672 0.903517
0.880385 0.766018 0.884184
0.958709 0.786221 0.915541
0 0.847822 0.880674
0.0432593 0.885847 0.916472
0.113664 0.914031 0.943023
0.21735 0.92752 0.955001
0.384314 0.919295 0.944808
0.572885 0.901411 0.923888
0.749294 0.883772 0.901839
0.8663 0.878447 0.895552
0.943496 0.88069 0.892927
0.0412604 0.990295 0.942168
0.0898299 1 0.964492
0.151659 1 0.982879
0.243809 1 0.98529
0.400427 1 0.966079
0.582666 0.986877 0.936889
0.753658 0.961181 0.908232
0.865263 0.950607 0.892546
0.939956 0.948791 0.888243
