tracker_LUT/LUT/quraqqq_12.A032_01050554_C002.cube
TITLE "Generated by Resolve"
LUT_3D_SIZE 5
0 0 0
0.0706493 0.00634775 0.00196841
0.274174 0 0
0.628229 0 0
0.845716 0 0
0 0.0644541 0
0.0703746 0.0702983 0
0.312291 0.0447852 0
0.675654 0.00782788 0
0.899977 0.0430304 0
0 0.244251 0
0.0250248 0.289509 0
0.309957 0.312001 0
0.722118 0.313466 0
0.971405 0.371908 0.0363317
0 0.624384 0
0.0205997 0.68983 0
0.315465 0.725689 0
0.725292 0.727504 0
0.960922 0.760067 0.0126192
0.0488899 0.981994 0.0331884
0.153582 1 0.0762493
0.411765 1 0.0767224
0.779492 0.98146 0.032639
0.972244 0.973342 0.0241398
0.00601205 0.00889601 0.0661936
0.0702983 0.00259403 0.0623789
0.271138 0 0.0229496
0.61387 0 0
0.827222 0 0
0 0.0655833 0.055848
0.0734722 0.0753185 0.0613413
0.322469 0.0557259 0.0405585
0.690425 0.0253147 0.00588998
0.918395 0.0678111 0.0418402
0 0.253071 0
0.0320745 0.309255 0.0185397
0.332906 0.336767 0.0453346
0.743694 0.342138 0.0528115
0.985641 0.398795 0.103182
0 0.633967 0
0.027985 0.710353 0.0121614
0.340398 0.749798 0.0538186
0.746303 0.748913 0.0505837
0.97261 0.77937 0.0852064
0.0369421 0.985489 0.0949569
0.149538 1 0.131533
0.422141 1 0.137682
0.791318 0.987427 0.0954604
0.977401 0.978485 0.0817578
9.15541e-05 0.00544747 0.27657
0.0583047 0 0.266545
0.260044 0 0.210742
0.598962 0 0.131853
0.822324 0 0.125597
0 0.0593271 0.261021
0.0670634 0.0706188 0.282429
0.320928 0.0496071 0.2598
0.688121 0.0119631 0.219196
0.91078 0.0435187 0.241352
0 0.258106 0.192462
0.0444343 0.321035 0.248356
0.348272 0.327504 0.204929
0.749493 0.374548 0.284779
0.996475 0.438621 0.340108
0 0.649042 0.162509
0.0481117 0.729213 0.239872
0.34081 0.766003 0.259495
0.754742 0.761532 0.259525
0.974227 0.788251 0.297704
0.0477302 0.996399 0.282521
0.158877 1 0.337316
0.410224 1 0.321462
0.785611 0.985504 0.281819
0.97258 0.974731 0.269535
0 0 0.638697
0.0347295 0 0.630793
0.229847 0 0.573632
0.597955 0 0.523018
0.79379 0 0.476402
0 0.0463417 0.638392
0.0523995 0.058854 0.657725
0.307744 0.034638 0.639185
0.682872 0.0100404 0.608118
0.905898 0.0360723 0.635081
0 0.255512 0.583963
0.0476234 0.322469 0.642283
0.342885 0.360693 0.667308
0.753643 0.370291 0.669902
0.999664 0.416617 0.721416
0 0.650309 0.553017
0.0514687 0.731716 0.638392
0.346899 0.765774 0.663935
0.759457 0.74789 0.571664
0.957412 0.789624 0.678752
0.0411078 0.989868 0.667994
0.155718 1 0.733455
0.397955 1 0.713375
0.758495 0.970993 0.646494
0.952285 0.956863 0.636713
0 0 0.868177
0.0245212 0 0.864851
0.232303 0 0.833005
0.569329 0 0.765942
0.818357 0 0.782834
0 0.0504311 0.873335
0.0539254 0.0653239 0.884962
0.308705 0.0391546 0.869902
0.686488 0.0103304 0.843763
0.926772 0.0642405 0.890669
0 0.27863 0.849943
0.063798 0.343999 0.891768
0.356497 0.379751 0.918425
0.768688 0.382315 0.921294
1 0.440345 0.972808
0 0.666758 0.8365
0.0691234 0.745846 0.898634
0.367224 0.776379 0.919875
0.747631 0.76672 0.903517
0.958709 0.786221 0.915541
0.0412604 0.990295 0.942168
0.151659 1 0.982879
0.400427 1 0.966079
0.753658 0.961181 0.908232
0.939956 0.948791 0.888243
